G90G94
G17
G21
(When using Fusion for Personal Use, the feedrate of rapid)
(moves is reduced to match the feedrate of cutting moves,)
(which can increase machining time. Unrestricted rapid moves)
(are available with a Fusion Subscription.)

(TOOL/MILL,3.175,0,12.7,0)
(STOCK/BLOCK,202,202,11,0, 0, 0)
M9
T1M6
S5000M3
G54
M9
G0X-103.114Y100.24
Z10
G1Z5F1000
Z2.817F333.3
X-103.053Y99.94Z2.5
X-102.914Y99.623Z2.488
X-102.705Y99.347Z2.476
X-102.44Y99.125Z2.464
X-102.13Y98.97Z2.452
X-101.794Y98.89Z2.439
X-101.448Y98.888Z2.427
X-101.11Y98.965Z2.415
X-100.8Y99.117Z2.403
X-100.532Y99.336Z2.391
X-100.32Y99.61Z2.379
X-100.177Y99.925Z2.367
X-100.11Y100.265Z2.355
X-100.122Y100.61Z2.343
X-100.212Y100.945Z2.33
X-100.376Y101.249Z2.318
X-100.605Y101.509Z2.306
X-100.887Y101.709Z2.294
X-101.208Y101.84Z2.282
X-101.549Y101.894Z2.27
X-101.894Y101.869Z2.258
X-102.225Y101.765Z2.246
X-102.523Y101.59Z2.234
X-102.773Y101.351Z2.221
X-102.962Y101.061Z2.209
X-103.08Y100.736Z2.197
X-103.121Y100.392Z2.185
X-103.083Y100.048Z2.173
X-102.967Y99.722Z2.161
X-102.78Y99.431Z2.149
X-102.531Y99.19Z2.137
X-102.234Y99.013Z2.125
X-101.904Y98.907Z2.112
X-101.559Y98.88Z2.1
X-101.217Y98.932Z2.088
X-100.896Y99.06Z2.076
X-100.613Y99.259Z2.064
X-100.382Y99.516Z2.052
X-100.216Y99.82Z2.04
X-100.123Y100.153Z2.028
X-100.109Y100.499Z2.016
X-100.174Y100.839Z2.003
X-100.315Y101.155Z1.991
X-100.524Y101.431Z1.979
X-100.791Y101.651Z1.967
X-101.101Y101.805Z1.955
X-101.438Y101.885Z1.943
X-101.784Z1.931
X-102.121Y101.807Z1.919
X-102.431Y101.654Z1.907
X-102.698Y101.434Z1.894
X-102.908Y101.159Z1.882
X-103.05Y100.844Z1.87
X-103.117Y100.504Z1.858
X-103.104Y100.158Z1.846
X-103.012Y99.824Z1.834
X-102.847Y99.52Z1.822
X-102.617Y99.262Z1.81
X-102.334Y99.062Z1.798
X-102.013Y98.933Z1.785
X-101.672Y98.88Z1.773
X-101.326Y98.906Z1.761
X-100.997Y99.011Z1.749
X-100.699Y99.187Z1.737
X-100.45Y99.427Z1.725
X-100.262Y99.718Z1.713
X-100.145Y100.043Z1.701
X-100.105Y100.387Z1.689
X-100.145Y100.731Z1.676
X-100.262Y101.057Z1.664
X-100.45Y101.347Z1.652
X-100.699Y101.587Z1.64
X-100.997Y101.763Z1.628
X-101.327Y101.868Z1.616
X-101.672Y101.894Z1.604
X-102.014Y101.841Z1.592
X-102.335Y101.711Z1.58
X-102.618Y101.512Z1.567
X-102.848Y101.253Z1.555
X-103.013Y100.949Z1.543
X-103.104Y100.615Z1.531
X-103.117Y100.269Z1.519
X-103.05Y99.93Z1.507
X-102.908Y99.614Z1.495
X-102.698Y99.339Z1.483
X-102.431Y99.12Z1.471
X-102.12Y98.967Z1.458
X-101.783Y98.888Z1.446
X-101.437Y98.889Z1.434
X-101.1Y98.969Z1.422
X-100.791Y99.123Z1.41
X-100.524Y99.344Z1.398
X-100.315Y99.619Z1.386
X-100.174Y99.935Z1.374
X-100.109Y100.275Z1.362
X-100.123Y100.621Z1.349
X-100.216Y100.954Z1.337
X-100.382Y101.258Z1.325
X-100.613Y101.516Z1.313
X-100.896Y101.714Z1.301
X-101.218Y101.842Z1.289
X-101.56Y101.894Z1.277
X-101.905Y101.867Z1.265
X-102.234Y101.761Z1.253
X-102.531Y101.583Z1.24
X-102.78Y101.342Z1.228
X-102.967Y101.051Z1.216
X-103.083Y100.725Z1.204
X-103.121Y100.381Z1.192
X-103.08Y100.038Z1.18
X-102.962Y99.713Z1.168
X-102.773Y99.423Z1.156
X-102.523Y99.184Z1.144
X-102.224Y99.008Z1.131
X-101.894Y98.905Z1.119
X-101.549Y98.88Z1.107
X-101.207Y98.934Z1.095
X-100.887Y99.065Z1.083
X-100.605Y99.266Z1.071
X-100.376Y99.525Z1.059
X-100.212Y99.83Z1.047
X-100.122Y100.164Z1.035
X-100.11Y100.51Z1.022
X-100.178Y100.849Z1.01
X-100.321Y101.164Z0.998
X-100.532Y101.438Z0.986
X-100.8Y101.657Z0.974
X-101.111Y101.809Z0.962
X-101.448Y101.886Z0.95
X-101.794Y101.884Z0.938
X-102.131Y101.803Z0.926
X-102.44Y101.648Z0.913
X-102.706Y101.426Z0.901
X-102.914Y101.15Z0.889
X-103.054Y100.833Z0.877
X-103.117Y100.493Z0.865
X-103.102Y100.148Z0.853
X-103.008Y99.815Z0.841
X-102.841Y99.512Z0.829
X-102.609Y99.255Z0.817
X-102.325Y99.057Z0.804
X-102.003Y98.93Z0.792
X-101.661Y98.88Z0.78
X-101.316Y98.908Z0.768
X-100.987Y99.015Z0.756
X-100.691Y99.194Z0.744
X-100.443Y99.435Z0.732
X-100.257Y99.727Z0.72
X-100.142Y100.054Z0.708
X-100.105Y100.398Z0.696
X-100.147Y100.741Z0.683
X-100.266Y101.066Z0.671
X-100.457Y101.355Z0.659
X-100.708Y101.593Z0.647
X-101.007Y101.768Z0.635
X-101.337Y101.87Z0.623
X-101.683Y101.893Z0.611
X-102.024Y101.838Z0.599
X-102.344Y101.706Z0.587
X-102.625Y101.505Z0.574
X-102.854Y101.245Z0.562
X-103.016Y100.939Z0.55
X-103.105Y100.605Z0.538
X-103.116Y100.259Z0.526
X-103.047Y99.92Z0.514
X-102.903Y99.605Z0.502
X-102.691Y99.332Z0.49
X-102.422Y99.114Z0.478
X-102.11Y98.963Z0.465
X-101.773Y98.887Z0.453
X-101.427Y98.89Z0.441
X-101.09Y98.972Z0.429
X-100.782Y99.129Z0.417
X-100.517Y99.351Z0.405
X-100.31Y99.628Z0.393
X-100.171Y99.945Z0.381
X-100.108Y100.286Z0.369
X-100.125Y100.631Z0.356
X-100.22Y100.964Z0.344
X-100.388Y101.267Z0.332
X-100.621Y101.523Z0.32
X-100.906Y101.719Z0.308
X-101.228Y101.845Z0.296
X-101.57Y101.894Z0.284
X-101.915Y101.864Z0.272
X-102.244Y101.757Z0.26
X-102.54Y101.577Z0.247
X-102.787Y101.334Z0.235
X-102.972Y101.042Z0.223
X-103.085Y100.715Z0.211
X-103.121Y100.371Z0.199
X-103.078Y100.028Z0.187
X-102.957Y99.703Z0.175
X-102.766Y99.415Z0.163
X-102.514Y99.178Z0.151
X-102.215Y99.004Z0.138
X-101.884Y98.903Z0.126
X-101.538Y98.881Z0.114
X-101.197Y98.937Z0.102
X-100.877Y99.07Z0.09
X-100.597Y99.273Z0.078
X-100.37Y99.534Z0.066
X-100.208Y99.84Z0.054
X-100.12Y100.174Z0.042
X-100.111Y100.52Z0.029
X-100.181Y100.859Z0.017
X-100.326Y101.173Z0.005
X-100.539Y101.446Z-0.007
X-100.809Y101.663Z-0.019
X-101.121Y101.812Z-0.031
X-101.459Y101.887Z-0.043
X-101.805Y101.883Z-0.055
X-102.141Y101.8Z-0.067
X-102.449Y101.642Z-0.08
X-102.713Y101.419Z-0.092
X-102.919Y101.141Z-0.104
X-103.057Y100.823Z-0.116
X-103.118Y100.483Z-0.128
X-103.1Y100.137Z-0.14
X-103.004Y99.805Z-0.152
X-102.835Y99.503Z-0.164
X-102.601Y99.248Z-0.176
X-102.316Y99.052Z-0.189
X-101.993Y98.927Z-0.201
X-101.65Y98.879Z-0.213
X-101.306Y98.91Z-0.225
X-100.977Y99.019Z-0.237
X-100.682Y99.2Z-0.249
X-100.436Y99.444Z-0.261
X-100.252Y99.737Z-0.273
X-100.14Y100.064Z-0.285
X-100.105Y100.408Z-0.298
X-100.15Y100.751Z-0.31
X-100.271Y101.075Z-0.322
X-100.464Y101.363Z-0.334
X-100.716Y101.599Z-0.346
X-101.016Y101.772Z-0.358
X-101.348Y101.872Z-0.37
X-101.693Y101.893Z-0.382
X-102.034Y101.835Z-0.394
X-102.353Y101.701Z-0.407
X-102.633Y101.498Z-0.419
X-102.86Y101.236Z-0.431
X-103.02Y100.929Z-0.443
X-103.107Y100.594Z-0.455
X-103.115Y100.248Z-0.467
X-103.044Y99.91Z-0.479
X-102.897Y99.596Z-0.491
X-102.683Y99.324Z-0.503
X-102.413Y99.108Z-0.516
X-102.1Y98.96Z-0.528
X-101.762Y98.886Z-0.54
X-101.416Y98.892Z-0.552
X-101.081Y98.976Z-0.564
X-100.773Y99.134Z-0.576
X-100.51Y99.359Z-0.588
X-100.304Y99.638Z-0.6
X-100.168Y99.956Z-0.612
X-100.108Y100.296Z-0.625
X-100.127Y100.642Z-0.637
X-100.224Y100.974Z-0.649
X-100.394Y101.275Z-0.661
X-100.629Y101.53Z-0.673
X-100.915Y101.724Z-0.685
X-101.238Y101.848Z-0.697
X-101.581Y101.895Z-0.709
X-101.926Y101.862Z-0.721
X-102.254Y101.752Z-0.734
X-102.548Y101.57Z-0.746
X-102.793Y101.326Z-0.758
X-102.976Y101.032Z-0.77
X-103.087Y100.705Z-0.782
X-103.121Y100.36Z-0.794
X-103.075Y100.017Z-0.806
X-102.952Y99.694Z-0.818
X-102.759Y99.407Z-0.83
X-102.506Y99.171Z-0.843
X-102.205Y99Z-0.855
X-101.873Y98.901Z-0.867
X-101.528Y98.881Z-0.879
X-101.187Y98.94Z-0.891
X-100.868Y99.076Z-0.903
X-100.589Y99.28Z-0.915
X-100.364Y99.542Z-0.927
X-100.204Y99.849Z-0.939
X-100.119Y100.185Z-0.952
X-100.112Y100.531Z-0.964
X-100.184Y100.869Z-0.976
X-100.332Y101.182Z-0.988
X-100.547Y101.453Z-1
X-100.775Y101.684F1000
X-100.878Y101.753
X-101Y101.778
X-101.122Y101.753
X-101.225Y101.684
X-101.684Y101.225
X-101.753Y101.122
X-101.778Y101
X-101.753Y100.878
X-101.684Y100.775
X-101.225Y100.316
X-101.122Y100.247
X-101Y100.222
X-100.878Y100.247
X-100.775Y100.316
X-100.316Y100.775
X-100.247Y100.878
X-100.222Y101
X-100.247Y101.122
X-100.316Y101.225
X-100.547Y101.453
X-100.717Y101.678
X-100.821Y101.94
X-100.851Y102.221
X-100.804Y102.499
X-100.778Y102.682
X-100.815Y102.863
X-100.909Y103.021
X-101.05Y103.14
X-101.222Y103.206
X-101.407Y103.212
X-101.583Y103.156
X-101.731Y103.046
X-102.671Y102.094
X-103.642Y101.173
X-103.709Y101.064
Y100.936
X-103.642Y100.827
X-102.381Y99.619
X-101.173Y98.358
X-101.064Y98.291
X-100.936
X-100.827Y98.358
X-99.619Y99.619
X-98.358Y100.827
X-98.291Y100.936
Y101.064
X-98.358Y101.173
X-99.619Y102.381
X-100.827Y103.642
X-100.936Y103.709
X-101.064
X-101.173Y103.642
X-101.731Y103.046
X-101.952Y102.856
X-102.207Y102.713
X-102.485Y102.623
X-102.775Y102.59
X-103.066Y102.614
X-103.346Y102.696
X-103.682Y102.788
X-104.029Y102.804
X-104.371Y102.742
X-104.691Y102.606
X-104.973Y102.402
X-105.67Y101.783
X-106.381Y101.181
X-106.444Y101.1
X-106.466Y101
X-106.444Y100.9
X-106.381Y100.819
X-105.263Y99.859
X-104.183Y98.858
X-103.142Y97.817
X-102.141Y96.737
X-101.181Y95.619
X-101.1Y95.556
X-101Y95.534
X-100.9Y95.556
X-100.819Y95.619
X-99.859Y96.737
X-98.858Y97.817
X-97.817Y98.858
X-96.737Y99.859
X-95.619Y100.819
X-95.556Y100.9
X-95.534Y101
X-95.556Y101.1
X-95.619Y101.181
X-96.737Y102.141
X-97.817Y103.142
X-98.858Y104.183
X-99.859Y105.263
X-100.819Y106.381
X-100.9Y106.444
X-101Y106.466
X-101.1Y106.444
X-101.181Y106.381
X-102.076Y105.336
X-103.006Y104.324
X-103.973Y103.345
X-104.973Y102.402
X-105.208Y102.228
X-105.472Y102.103
X-105.756Y102.033
X-106.048Y102.02
X-106.336Y102.065
X-106.611Y102.166
X-106.939Y102.282
X-107.284Y102.322
X-107.63Y102.285
X-107.959Y102.172
X-108.256Y101.99
X-109.314Y101.19
X-109.385Y101.107
X-109.411Y101
X-109.385Y100.893
X-109.314Y100.81
X-108.003Y99.811
X-106.739Y98.754
X-105.523Y97.642
X-104.358Y96.477
X-103.246Y95.261
X-102.189Y93.997
X-101.19Y92.686
X-101.107Y92.615
X-101Y92.589
X-100.893Y92.615
X-100.81Y92.686
X-99.811Y93.997
X-98.754Y95.261
X-97.642Y96.477
X-96.477Y97.642
X-95.261Y98.754
X-93.997Y99.811
X-92.686Y100.81
X-92.615Y100.893
X-92.589Y101
X-92.615Y101.107
X-92.686Y101.19
X-93.997Y102.189
X-95.261Y103.246
X-96.477Y104.358
X-97.642Y105.523
X-98.754Y106.739
X-99.811Y108.003
X-100.81Y109.314
X-100.893Y109.385
X-101Y109.411
X-101.107Y109.385
X-101.19Y109.314
X-102.223Y107.961
X-103.316Y106.658
X-104.469Y105.407
X-105.678Y104.21
X-106.941Y103.07
X-108.256Y101.99
X-108.502Y101.833
X-108.775Y101.728
X-109.064Y101.679
X-109.356Y101.687
X-109.641Y101.754
X-109.907Y101.875
X-110.226Y102.015
X-110.568Y102.081
X-110.916Y102.07
X-111.253Y101.983
X-111.562Y101.823
X-112.614Y101.149
X-112.676Y101.085
X-112.698Y101
X-112.676Y100.915
X-112.614Y100.851
X-111.242Y99.961
X-109.912Y99.007
X-108.628Y97.993
X-107.393Y96.92
X-106.21Y95.79
X-105.08Y94.607
X-104.007Y93.372
X-102.993Y92.088
X-102.039Y90.758
X-101.149Y89.386
X-101.085Y89.324
X-101Y89.302
X-100.915Y89.324
X-100.851Y89.386
X-99.961Y90.758
X-99.007Y92.088
X-97.993Y93.372
X-96.92Y94.607
X-95.79Y95.79
X-94.607Y96.92
X-93.372Y97.993
X-92.088Y99.007
X-90.758Y99.961
X-89.386Y100.851
X-89.324Y100.915
X-89.302Y101
X-89.324Y101.085
X-89.386Y101.149
X-90.758Y102.039
X-92.088Y102.993
X-93.372Y104.007
X-94.607Y105.08
X-95.79Y106.21
X-96.92Y107.393
X-97.993Y108.628
X-99.007Y109.912
X-99.961Y111.242
X-100.851Y112.614
X-100.915Y112.676
X-101Y112.698
X-101.085Y112.676
X-101.149Y112.614
X-101.969Y111.345
X-102.843Y110.112
X-103.769Y108.918
X-104.746Y107.765
X-105.772Y106.656
X-106.845Y105.591
X-107.962Y104.574
X-109.122Y103.606
X-110.323Y102.688
X-111.562Y101.823
X-111.821Y101.686
X-112.101Y101.602
X-112.393Y101.576
X-112.684Y101.607
X-112.963Y101.695
X-113.22Y101.837
X-113.526Y102.002
X-113.862Y102.095
X-114.21Y102.112
X-114.553Y102.052
X-114.875Y101.918
X-115.638Y101.507
X-116.412Y101.117
X-116.477Y101.047
Y100.953
X-116.412Y100.883
X-115.015Y100.159
X-113.653Y99.371
X-112.331Y98.518
X-111.05Y97.604
X-109.814Y96.631
X-108.625Y95.6
X-107.486Y94.514
X-106.4Y93.375
X-105.369Y92.186
X-104.396Y90.95
X-103.482Y89.669
X-102.629Y88.347
X-101.841Y86.985
X-101.117Y85.588
X-101.047Y85.523
X-100.953
X-100.883Y85.588
X-100.159Y86.985
X-99.371Y88.347
X-98.518Y89.669
X-97.604Y90.95
X-96.631Y92.186
X-95.6Y93.375
X-94.514Y94.514
X-93.375Y95.6
X-92.186Y96.631
X-90.95Y97.604
X-89.669Y98.518
X-88.347Y99.371
X-86.985Y100.159
X-85.588Y100.883
X-85.523Y100.953
Y101.047
X-85.588Y101.117
X-86.985Y101.841
X-88.347Y102.629
X-89.669Y103.482
X-90.95Y104.396
X-92.186Y105.369
X-93.375Y106.4
X-94.514Y107.486
X-95.6Y108.625
X-96.631Y109.814
X-97.604Y111.05
X-98.518Y112.331
X-99.371Y113.653
X-100.159Y115.015
X-100.883Y116.412
X-100.953Y116.477
X-101.047
X-101.117Y116.412
X-101.835Y115.026
X-102.617Y113.675
X-103.461Y112.361
X-104.366Y111.089
X-105.33Y109.861
X-106.351Y108.68
X-107.425Y107.547
X-108.552Y106.467
X-109.728Y105.44
X-110.952Y104.47
X-112.219Y103.558
X-113.528Y102.707
X-114.875Y101.918
X-115.144Y101.802
X-115.431Y101.741
X-115.724Y101.738
X-116.012Y101.794
X-116.283Y101.905
X-116.527Y102.067
X-116.82Y102.257
X-117.147Y102.378
X-117.492Y102.424
X-117.84Y102.393
X-118.172Y102.287
X-119.164Y101.864
X-120.17Y101.475
X-121.189Y101.121
X-121.252Y101.075
X-121.277Y101
X-121.252Y100.925
X-121.189Y100.879
X-119.729Y100.359
X-118.297Y99.768
X-116.895Y99.108
X-115.528Y98.379
X-114.198Y97.584
X-112.909Y96.724
X-111.664Y95.801
X-110.466Y94.819
X-109.317Y93.778
X-108.222Y92.683
X-107.181Y91.534
X-106.199Y90.336
X-105.276Y89.091
X-104.416Y87.802
X-103.621Y86.472
X-102.892Y85.105
X-102.232Y83.703
X-101.641Y82.271
X-101.121Y80.811
X-101.075Y80.748
X-101Y80.723
X-100.925Y80.748
X-100.879Y80.811
X-100.359Y82.271
X-99.768Y83.703
X-99.108Y85.105
X-98.379Y86.472
X-97.584Y87.802
X-96.724Y89.091
X-95.801Y90.336
X-94.819Y91.534
X-93.778Y92.683
X-92.683Y93.778
X-91.534Y94.819
X-90.336Y95.801
X-89.091Y96.724
X-87.802Y97.584
X-86.472Y98.379
X-85.105Y99.108
X-83.703Y99.768
X-82.271Y100.359
X-80.811Y100.879
X-80.748Y100.925
X-80.723Y101
X-80.748Y101.075
X-80.811Y101.121
X-82.271Y101.641
X-83.703Y102.232
X-85.105Y102.892
X-86.472Y103.621
X-87.802Y104.416
X-89.091Y105.276
X-90.336Y106.199
X-91.534Y107.181
X-92.683Y108.222
X-93.778Y109.317
X-94.819Y110.466
X-95.801Y111.664
X-96.724Y112.909
X-97.584Y114.198
X-98.379Y115.528
X-99.108Y116.895
X-99.768Y118.297
X-100.359Y119.729
X-100.879Y121.189
X-100.925Y121.252
X-101Y121.277
X-101.075Y121.252
X-101.121Y121.189
X-101.638Y119.737
X-102.225Y118.311
X-102.881Y116.917
X-103.605Y115.556
X-104.395Y114.232
X-105.249Y112.948
X-106.164Y111.708
X-107.139Y110.514
X-108.172Y109.37
X-109.259Y108.277
X-110.399Y107.239
X-111.588Y106.258
X-112.823Y105.337
X-114.103Y104.477
X-115.423Y103.681
X-116.78Y102.95
X-118.172Y102.287
X-118.443Y102.197
X-118.727Y102.162
X-119.013Y102.184
X-119.288Y102.262
X-119.543Y102.393
X-119.766Y102.571
X-120.034Y102.78
X-120.342Y102.926
X-120.674Y103
X-121.014
X-121.346Y102.926
X-122.685Y102.501
X-124.042Y102.139
X-125.415Y101.843
X-126.8Y101.611
X-128.195Y101.445
X-129.596Y101.346
X-131Y101.313
X-161
X-161.136Y101.282
X-161.244Y101.195
X-161.305Y101.07
Y100.93
X-161.244Y100.805
X-161.136Y100.718
X-161Y100.688
X-131
X-129.496Y100.649
X-127.997Y100.535
X-126.504Y100.345
X-125.024Y100.08
X-123.559Y99.74
X-122.113Y99.326
X-120.689Y98.84
X-119.293Y98.282
X-117.926Y97.654
X-116.593Y96.957
X-115.296Y96.194
X-114.04Y95.366
X-112.828Y94.476
X-111.662Y93.526
X-110.546Y92.517
X-109.483Y91.454
X-108.474Y90.338
X-107.524Y89.172
X-106.634Y87.96
X-105.806Y86.704
X-105.043Y85.407
X-104.346Y84.074
X-103.718Y82.707
X-103.16Y81.311
X-102.674Y79.887
X-102.26Y78.441
X-101.92Y76.976
X-101.655Y75.496
X-101.465Y74.003
X-101.351Y72.504
X-101.313Y71
Y41
X-101.282Y40.864
X-101.195Y40.756
X-101.07Y40.695
X-100.93
X-100.805Y40.756
X-100.718Y40.864
X-100.688Y41
Y71
X-100.649Y72.504
X-100.535Y74.003
X-100.345Y75.496
X-100.08Y76.976
X-99.74Y78.441
X-99.326Y79.887
X-98.84Y81.311
X-98.282Y82.707
X-97.654Y84.074
X-96.957Y85.407
X-96.194Y86.704
X-95.366Y87.96
X-94.476Y89.172
X-93.526Y90.338
X-92.517Y91.454
X-91.454Y92.517
X-90.338Y93.526
X-89.172Y94.476
X-87.96Y95.366
X-86.704Y96.194
X-85.407Y96.957
X-84.074Y97.654
X-82.707Y98.282
X-81.311Y98.84
X-79.887Y99.326
X-78.441Y99.74
X-76.976Y100.08
X-75.496Y100.345
X-74.003Y100.535
X-72.504Y100.649
X-71Y100.688
X-41
X-40.864Y100.718
X-40.756Y100.805
X-40.695Y100.93
Y101.07
X-40.756Y101.195
X-40.864Y101.282
X-41Y101.313
X-71
X-72.504Y101.351
X-74.003Y101.465
X-75.496Y101.655
X-76.976Y101.92
X-78.441Y102.26
X-79.887Y102.674
X-81.311Y103.16
X-82.707Y103.718
X-84.074Y104.346
X-85.407Y105.043
X-86.704Y105.806
X-87.96Y106.634
X-89.172Y107.524
X-90.338Y108.474
X-91.454Y109.483
X-92.517Y110.546
X-93.526Y111.662
X-94.476Y112.828
X-95.366Y114.04
X-96.194Y115.296
X-96.957Y116.593
X-97.654Y117.926
X-98.282Y119.293
X-98.84Y120.689
X-99.326Y122.113
X-99.74Y123.559
X-100.08Y125.024
X-100.345Y126.504
X-100.535Y127.997
X-100.649Y129.496
X-100.688Y131
Y161
X-100.718Y161.136
X-100.805Y161.244
X-100.93Y161.305
X-101.07
X-101.195Y161.244
X-101.282Y161.136
X-101.313Y161
Y131
X-101.352Y129.467
X-101.471Y127.939
X-101.668Y126.418
X-101.944Y124.91
X-102.297Y123.418
X-102.727Y121.946
X-103.232Y120.499
X-103.811Y119.079
X-104.463Y117.691
X-105.185Y116.339
X-105.976Y115.026
X-106.835Y113.755
X-107.757Y112.531
X-108.742Y111.355
X-109.785Y110.232
X-110.886Y109.165
X-112.04Y108.156
X-113.245Y107.207
X-114.497Y106.322
X-115.793Y105.503
X-117.129Y104.752
X-118.503Y104.071
X-119.91Y103.462
X-121.346Y102.926
X-121.632Y102.858
X-121.926Y102.849
X-122.216Y102.898
X-122.49Y103.003
X-122.739Y103.16
X-122.951Y103.363
X-123.206Y103.602
X-123.506Y103.78
X-123.838Y103.888
X-124.186Y103.921
X-124.532Y103.878
X-125.809Y103.605
X-127.097Y103.392
X-128.393Y103.24
X-129.695Y103.148
X-131Y103.118
X-161
X-161.389Y103.081
X-161.765Y102.975
X-162.115Y102.8
X-162.427Y102.565
X-162.69Y102.276
X-162.896Y101.944
X-163.037Y101.579
X-163.108Y101.195
Y100.805
X-163.037Y100.421
X-162.896Y100.056
X-162.69Y99.724
X-162.427Y99.435
X-162.115Y99.2
X-161.765Y99.025
X-161.389Y98.919
X-161Y98.882
X-131
X-129.541Y98.844
X-128.085Y98.73
X-126.638Y98.539
X-125.203Y98.273
X-123.783Y97.932
X-122.384Y97.518
X-121.008Y97.031
X-119.659Y96.472
X-118.342Y95.843
X-117.059Y95.147
X-115.814Y94.384
X-114.611Y93.557
X-113.453Y92.669
X-112.343Y91.721
X-111.284Y90.716
X-110.279Y89.657
X-109.331Y88.547
X-108.443Y87.389
X-107.616Y86.186
X-106.853Y84.941
X-106.157Y83.658
X-105.528Y82.341
X-104.969Y80.992
X-104.482Y79.616
X-104.068Y78.217
X-103.727Y76.797
X-103.461Y75.362
X-103.27Y73.915
X-103.156Y72.459
X-103.118Y71
Y41
X-103.081Y40.611
X-102.975Y40.235
X-102.8Y39.885
X-102.565Y39.573
X-102.276Y39.31
X-101.944Y39.104
X-101.579Y38.963
X-101.195Y38.892
X-100.805
X-100.421Y38.963
X-100.056Y39.104
X-99.724Y39.31
X-99.435Y39.573
X-99.2Y39.885
X-99.025Y40.235
X-98.919Y40.611
X-98.882Y41
Y71
X-98.844Y72.459
X-98.73Y73.915
X-98.539Y75.362
X-98.273Y76.797
X-97.932Y78.217
X-97.518Y79.616
X-97.031Y80.992
X-96.472Y82.341
X-95.843Y83.658
X-95.147Y84.941
X-94.384Y86.186
X-93.557Y87.389
X-92.669Y88.547
X-91.721Y89.657
X-90.716Y90.716
X-89.657Y91.721
X-88.547Y92.669
X-87.389Y93.557
X-86.186Y94.384
X-84.941Y95.147
X-83.658Y95.843
X-82.341Y96.472
X-80.992Y97.031
X-79.616Y97.518
X-78.217Y97.932
X-76.797Y98.273
X-75.362Y98.539
X-73.915Y98.73
X-72.459Y98.844
X-71Y98.882
X-41
X-40.611Y98.919
X-40.235Y99.025
X-39.885Y99.2
X-39.573Y99.435
X-39.31Y99.724
X-39.104Y100.056
X-38.963Y100.421
X-38.892Y100.805
Y101.195
X-38.963Y101.579
X-39.104Y101.944
X-39.31Y102.276
X-39.573Y102.565
X-39.885Y102.8
X-40.235Y102.975
X-40.611Y103.081
X-41Y103.118
X-71
X-72.459Y103.156
X-73.915Y103.27
X-75.362Y103.461
X-76.797Y103.727
X-78.217Y104.068
X-79.616Y104.482
X-80.992Y104.969
X-82.341Y105.528
X-83.658Y106.157
X-84.941Y106.853
X-86.186Y107.616
X-87.389Y108.443
X-88.547Y109.331
X-89.657Y110.279
X-90.716Y111.284
X-91.721Y112.343
X-92.669Y113.453
X-93.557Y114.611
X-94.384Y115.814
X-95.147Y117.059
X-95.843Y118.342
X-96.472Y119.659
X-97.031Y121.008
X-97.518Y122.384
X-97.932Y123.783
X-98.273Y125.203
X-98.539Y126.638
X-98.73Y128.085
X-98.844Y129.541
X-98.882Y131
Y161
X-98.919Y161.389
X-99.025Y161.765
X-99.2Y162.115
X-99.435Y162.427
X-99.724Y162.69
X-100.056Y162.896
X-100.421Y163.037
X-100.805Y163.108
X-101.195
X-101.579Y163.037
X-101.944Y162.896
X-102.276Y162.69
X-102.565Y162.427
X-102.8Y162.115
X-102.975Y161.765
X-103.081Y161.389
X-103.118Y161
Y131
X-103.157Y129.51
X-103.277Y128.024
X-103.475Y126.547
X-103.753Y125.082
X-104.108Y123.634
X-104.54Y122.208
X-105.048Y120.806
X-105.63Y119.434
X-106.284Y118.094
X-107.009Y116.792
X-107.803Y115.53
X-108.663Y114.313
X-109.586Y113.143
X-110.571Y112.024
X-111.615Y110.959
X-112.713Y109.952
X-113.864Y109.004
X-115.064Y108.12
X-116.31Y107.301
X-117.597Y106.55
X-118.923Y105.869
X-120.284Y105.259
X-121.675Y104.723
X-123.092Y104.262
X-124.532Y103.878
X-124.824Y103.839
X-125.118Y103.858
X-125.402Y103.934
X-125.665Y104.066
X-125.897Y104.247
X-126.089Y104.471
X-126.319Y104.734
X-126.601Y104.941
X-126.92Y105.082
X-127.263Y105.151
X-127.613Y105.143
X-128.738Y105.021
X-129.868Y104.947
X-131Y104.923
X-161
X-161.558Y104.883
X-162.105Y104.764
X-162.629Y104.568
X-163.121Y104.3
X-163.569Y103.964
X-163.964Y103.569
X-164.3Y103.121
X-164.568Y102.629
X-164.764Y102.105
X-164.883Y101.558
X-164.923Y101
X-164.883Y100.442
X-164.764Y99.895
X-164.568Y99.371
X-164.3Y98.879
X-163.964Y98.431
X-163.569Y98.036
X-163.121Y97.7
X-162.629Y97.432
X-162.105Y97.236
X-161.558Y97.117
X-161Y97.077
X-131
X-129.588Y97.039
X-128.181Y96.925
X-126.781Y96.734
X-125.394Y96.468
X-124.024Y96.127
X-122.673Y95.712
X-121.348Y95.225
X-120.05Y94.667
X-118.785Y94.04
X-117.556Y93.345
X-116.366Y92.584
X-115.219Y91.76
X-114.118Y90.875
X-113.067Y89.932
X-112.068Y88.933
X-111.125Y87.882
X-110.24Y86.781
X-109.416Y85.634
X-108.655Y84.444
X-107.96Y83.215
X-107.333Y81.95
X-106.775Y80.652
X-106.288Y79.327
X-105.873Y77.976
X-105.532Y76.606
X-105.266Y75.219
X-105.075Y73.819
X-104.961Y72.412
X-104.923Y71
Y41
X-104.883Y40.442
X-104.764Y39.895
X-104.568Y39.371
X-104.3Y38.879
X-103.964Y38.431
X-103.569Y38.036
X-103.121Y37.7
X-102.629Y37.432
X-102.105Y37.236
X-101.558Y37.117
X-101Y37.077
X-100.442Y37.117
X-99.895Y37.236
X-99.371Y37.432
X-98.879Y37.7
X-98.431Y38.036
X-98.036Y38.431
X-97.7Y38.879
X-97.432Y39.371
X-97.236Y39.895
X-97.117Y40.442
X-97.077Y41
Y71
X-97.039Y72.412
X-96.925Y73.819
X-96.734Y75.219
X-96.468Y76.606
X-96.127Y77.976
X-95.712Y79.327
X-95.225Y80.652
X-94.667Y81.95
X-94.04Y83.215
X-93.345Y84.444
X-92.584Y85.634
X-91.76Y86.781
X-90.875Y87.882
X-89.932Y88.933
X-88.933Y89.932
X-87.882Y90.875
X-86.781Y91.76
X-85.634Y92.584
X-84.444Y93.345
X-83.215Y94.04
X-81.95Y94.667
X-80.652Y95.225
X-79.327Y95.712
X-77.976Y96.127
X-76.606Y96.468
X-75.219Y96.734
X-73.819Y96.925
X-72.412Y97.039
X-71Y97.077
X-41
X-40.442Y97.117
X-39.895Y97.236
X-39.371Y97.432
X-38.879Y97.7
X-38.431Y98.036
X-38.036Y98.431
X-37.7Y98.879
X-37.432Y99.371
X-37.236Y99.895
X-37.117Y100.442
X-37.077Y101
X-37.117Y101.558
X-37.236Y102.105
X-37.432Y102.629
X-37.7Y103.121
X-38.036Y103.569
X-38.431Y103.964
X-38.879Y104.3
X-39.371Y104.568
X-39.895Y104.764
X-40.442Y104.883
X-41Y104.923
X-71
X-72.412Y104.961
X-73.819Y105.075
X-75.219Y105.266
X-76.606Y105.532
X-77.976Y105.873
X-79.327Y106.288
X-80.652Y106.775
X-81.95Y107.333
X-83.215Y107.96
X-84.444Y108.655
X-85.634Y109.416
X-86.781Y110.24
X-87.882Y111.125
X-88.933Y112.068
X-89.932Y113.067
X-90.875Y114.118
X-91.76Y115.219
X-92.584Y116.366
X-93.345Y117.556
X-94.04Y118.785
X-94.667Y120.05
X-95.225Y121.348
X-95.712Y122.673
X-96.127Y124.024
X-96.468Y125.394
X-96.734Y126.781
X-96.925Y128.181
X-97.039Y129.588
X-97.077Y131
Y161
X-97.117Y161.558
X-97.236Y162.105
X-97.432Y162.629
X-97.7Y163.121
X-98.036Y163.569
X-98.431Y163.964
X-98.879Y164.3
X-99.371Y164.568
X-99.895Y164.764
X-100.442Y164.883
X-101Y164.923
X-101.558Y164.883
X-102.105Y164.764
X-102.629Y164.568
X-103.121Y164.3
X-103.569Y163.964
X-103.964Y163.569
X-104.3Y163.121
X-104.568Y162.629
X-104.764Y162.105
X-104.883Y161.558
X-104.923Y161
Y131
X-104.96Y129.609
X-105.071Y128.223
X-105.256Y126.844
X-105.514Y125.477
X-105.845Y124.126
X-106.247Y122.794
X-106.72Y121.486
X-107.262Y120.204
X-107.872Y118.954
X-108.547Y117.738
X-109.286Y116.559
X-110.087Y115.422
X-110.948Y114.329
X-111.865Y113.283
X-112.837Y112.288
X-113.861Y111.346
X-114.933Y110.46
X-116.052Y109.632
X-117.212Y108.865
X-118.412Y108.162
X-119.648Y107.523
X-120.916Y106.951
X-122.213Y106.447
X-123.535Y106.014
X-124.878Y105.651
X-126.239Y105.361
X-127.613Y105.143
X-127.907Y105.134
X-128.198Y105.184
X-128.473Y105.29
X-128.722Y105.449
X-128.934Y105.654
X-129.101Y105.897
X-129.302Y106.183
X-129.56Y106.419
X-129.863Y106.595
X-130.197Y106.7
X-130.546Y106.732
X-131Y106.728
X-161
X-161.665Y106.689
X-162.321Y106.573
X-162.959Y106.382
X-163.57Y106.118
X-164.147Y105.785
X-164.682Y105.388
X-165.166Y104.93
X-165.594Y104.42
X-165.96Y103.864
X-166.259Y103.269
X-166.487Y102.643
X-166.64Y101.995
X-166.718Y101.333
Y100.667
X-166.64Y100.005
X-166.487Y99.357
X-166.259Y98.731
X-165.96Y98.136
X-165.594Y97.58
X-165.166Y97.07
X-164.682Y96.612
X-164.147Y96.215
X-163.57Y95.882
X-162.959Y95.618
X-162.321Y95.427
X-161.665Y95.311
X-161Y95.272
X-131
X-129.639Y95.234
X-128.282Y95.12
X-126.934Y94.93
X-125.599Y94.664
X-124.281Y94.324
X-122.983Y93.91
X-121.711Y93.425
X-120.469Y92.869
X-119.259Y92.244
X-118.086Y91.552
X-116.954Y90.796
X-115.866Y89.977
X-114.826Y89.099
X-113.837Y88.163
X-112.901Y87.174
X-112.023Y86.134
X-111.204Y85.046
X-110.448Y83.914
X-109.756Y82.741
X-109.131Y81.531
X-108.575Y80.289
X-108.09Y79.017
X-107.676Y77.719
X-107.336Y76.401
X-107.07Y75.066
X-106.88Y73.718
X-106.766Y72.361
X-106.728Y71
Y41
X-106.689Y40.335
X-106.573Y39.679
X-106.382Y39.041
X-106.118Y38.43
X-105.785Y37.853
X-105.388Y37.318
X-104.93Y36.834
X-104.42Y36.406
X-103.864Y36.04
X-103.269Y35.741
X-102.643Y35.513
X-101.995Y35.36
X-101.333Y35.282
X-100.667
X-100.005Y35.36
X-99.357Y35.513
X-98.731Y35.741
X-98.136Y36.04
X-97.58Y36.406
X-97.07Y36.834
X-96.612Y37.318
X-96.215Y37.853
X-95.882Y38.43
X-95.618Y39.041
X-95.427Y39.679
X-95.311Y40.335
X-95.272Y41
Y71
X-95.234Y72.361
X-95.12Y73.718
X-94.93Y75.066
X-94.664Y76.401
X-94.324Y77.719
X-93.91Y79.017
X-93.425Y80.289
X-92.869Y81.531
X-92.244Y82.741
X-91.552Y83.914
X-90.796Y85.046
X-89.977Y86.134
X-89.099Y87.174
X-88.163Y88.163
X-87.174Y89.099
X-86.134Y89.977
X-85.046Y90.796
X-83.914Y91.552
X-82.741Y92.244
X-81.531Y92.869
X-80.289Y93.425
X-79.017Y93.91
X-77.719Y94.324
X-76.401Y94.664
X-75.066Y94.93
X-73.718Y95.12
X-72.361Y95.234
X-71Y95.272
X-41
X-40.335Y95.311
X-39.679Y95.427
X-39.041Y95.618
X-38.43Y95.882
X-37.853Y96.215
X-37.318Y96.612
X-36.834Y97.07
X-36.406Y97.58
X-36.04Y98.136
X-35.741Y98.731
X-35.513Y99.357
X-35.36Y100.005
X-35.282Y100.667
Y101.333
X-35.36Y101.995
X-35.513Y102.643
X-35.741Y103.269
X-36.04Y103.864
X-36.406Y104.42
X-36.834Y104.93
X-37.318Y105.388
X-37.853Y105.785
X-38.43Y106.118
X-39.041Y106.382
X-39.679Y106.573
X-40.335Y106.689
X-41Y106.728
X-71
X-72.361Y106.766
X-73.718Y106.88
X-75.066Y107.07
X-76.401Y107.336
X-77.719Y107.676
X-79.017Y108.09
X-80.289Y108.575
X-81.531Y109.131
X-82.741Y109.756
X-83.914Y110.448
X-85.046Y111.204
X-86.134Y112.023
X-87.174Y112.901
X-88.163Y113.837
X-89.099Y114.826
X-89.977Y115.866
X-90.796Y116.954
X-91.552Y118.086
X-92.244Y119.259
X-92.869Y120.469
X-93.425Y121.711
X-93.91Y122.983
X-94.324Y124.281
X-94.664Y125.599
X-94.93Y126.934
X-95.12Y128.282
X-95.234Y129.639
X-95.272Y131
Y161
X-95.311Y161.665
X-95.427Y162.321
X-95.618Y162.959
X-95.882Y163.57
X-96.215Y164.147
X-96.612Y164.682
X-97.07Y165.166
X-97.58Y165.594
X-98.136Y165.96
X-98.731Y166.259
X-99.357Y166.487
X-100.005Y166.64
X-100.667Y166.718
X-101.333
X-101.995Y166.64
X-102.643Y166.487
X-103.269Y166.259
X-103.864Y165.96
X-104.42Y165.594
X-104.93Y165.166
X-105.388Y164.682
X-105.785Y164.147
X-106.118Y163.57
X-106.382Y162.959
X-106.573Y162.321
X-106.689Y161.665
X-106.728Y161
Y131
X-106.765Y129.655
X-106.877Y128.315
X-107.062Y126.982
X-107.322Y125.662
X-107.654Y124.359
X-108.058Y123.075
X-108.532Y121.816
X-109.075Y120.586
X-109.686Y119.387
X-110.362Y118.224
X-111.102Y117.1
X-111.902Y116.019
X-112.762Y114.984
X-113.677Y113.998
X-114.645Y113.065
X-115.664Y112.186
X-116.73Y111.365
X-117.84Y110.605
X-118.99Y109.907
X-120.177Y109.274
X-121.397Y108.708
X-122.647Y108.21
X-123.923Y107.782
X-125.22Y107.426
X-126.535Y107.142
X-127.863Y106.931
X-129.202Y106.794
X-130.546Y106.732
X-130.834Y106.755
X-131.113Y106.835
X-131.37Y106.968
X-131.596Y107.149
X-131.782Y107.371
X-131.92Y107.626
X-132.058Y107.88
X-132.243Y108.103
X-132.467Y108.285
X-132.722Y108.421
X-132.999Y108.504
X-133.287Y108.533
X-161
X-161.762Y108.494
X-162.516Y108.378
X-163.255Y108.187
X-163.97Y107.922
X-164.656Y107.586
X-165.303Y107.182
X-165.906Y106.715
X-166.46Y106.19
X-166.957Y105.611
X-167.392Y104.984
X-167.763Y104.317
X-168.064Y103.616
X-168.292Y102.888
X-168.446Y102.141
X-168.523Y101.382
Y100.618
X-168.446Y99.859
X-168.292Y99.112
X-168.064Y98.384
X-167.763Y97.683
X-167.392Y97.016
X-166.957Y96.389
X-166.46Y95.81
X-165.906Y95.285
X-165.303Y94.818
X-164.656Y94.414
X-163.97Y94.078
X-163.255Y93.813
X-162.516Y93.622
X-161.762Y93.506
X-161Y93.467
X-131
X-129.694Y93.429
X-128.392Y93.316
X-127.099Y93.126
X-125.819Y92.862
X-124.556Y92.524
X-123.316Y92.113
X-122.101Y91.63
X-120.917Y91.078
X-119.766Y90.457
X-118.654Y89.771
X-117.583Y89.022
X-116.558Y88.211
X-115.582Y87.342
X-114.658Y86.418
X-113.789Y85.442
X-112.978Y84.417
X-112.229Y83.346
X-111.543Y82.234
X-110.922Y81.083
X-110.37Y79.899
X-109.887Y78.684
X-109.476Y77.444
X-109.138Y76.181
X-108.874Y74.901
X-108.684Y73.608
X-108.571Y72.306
X-108.533Y71
Y41
X-108.494Y40.238
X-108.378Y39.484
X-108.187Y38.745
X-107.922Y38.03
X-107.586Y37.344
X-107.182Y36.697
X-106.715Y36.094
X-106.19Y35.54
X-105.611Y35.043
X-104.984Y34.608
X-104.317Y34.237
X-103.616Y33.936
X-102.888Y33.708
X-102.141Y33.554
X-101.382Y33.477
X-100.618
X-99.859Y33.554
X-99.112Y33.708
X-98.384Y33.936
X-97.683Y34.237
X-97.016Y34.608
X-96.389Y35.043
X-95.81Y35.54
X-95.285Y36.094
X-94.818Y36.697
X-94.414Y37.344
X-94.078Y38.03
X-93.813Y38.745
X-93.622Y39.484
X-93.506Y40.238
X-93.467Y41
Y71
X-93.429Y72.306
X-93.316Y73.608
X-93.126Y74.901
X-92.862Y76.181
X-92.524Y77.444
X-92.113Y78.684
X-91.63Y79.899
X-91.078Y81.083
X-90.457Y82.234
X-89.771Y83.346
X-89.022Y84.417
X-88.211Y85.442
X-87.342Y86.418
X-86.418Y87.342
X-85.442Y88.211
X-84.417Y89.022
X-83.346Y89.771
X-82.234Y90.457
X-81.083Y91.078
X-79.899Y91.63
X-78.684Y92.113
X-77.444Y92.524
X-76.181Y92.862
X-74.901Y93.126
X-73.608Y93.316
X-72.306Y93.429
X-71Y93.467
X-41
X-40.238Y93.506
X-39.484Y93.622
X-38.745Y93.813
X-38.03Y94.078
X-37.344Y94.414
X-36.697Y94.818
X-36.094Y95.285
X-35.54Y95.81
X-35.043Y96.389
X-34.608Y97.016
X-34.237Y97.683
X-33.936Y98.384
X-33.708Y99.112
X-33.554Y99.859
X-33.477Y100.618
Y101.382
X-33.554Y102.141
X-33.708Y102.888
X-33.936Y103.616
X-34.237Y104.317
X-34.608Y104.984
X-35.043Y105.611
X-35.54Y106.19
X-36.094Y106.715
X-36.697Y107.182
X-37.344Y107.586
X-38.03Y107.922
X-38.745Y108.187
X-39.484Y108.378
X-40.238Y108.494
X-41Y108.533
X-71
X-72.306Y108.571
X-73.608Y108.684
X-74.901Y108.874
X-76.181Y109.138
X-77.444Y109.476
X-78.684Y109.887
X-79.899Y110.37
X-81.083Y110.922
X-82.234Y111.543
X-83.346Y112.229
X-84.417Y112.978
X-85.442Y113.789
X-86.418Y114.658
X-87.342Y115.582
X-88.211Y116.558
X-89.022Y117.583
X-89.771Y118.654
X-90.457Y119.766
X-91.078Y120.917
X-91.63Y122.101
X-92.113Y123.316
X-92.524Y124.556
X-92.862Y125.819
X-93.126Y127.099
X-93.316Y128.392
X-93.429Y129.694
X-93.467Y131
Y161
X-93.506Y161.762
X-93.622Y162.516
X-93.813Y163.255
X-94.078Y163.97
X-94.414Y164.656
X-94.818Y165.303
X-95.285Y165.906
X-95.81Y166.46
X-96.389Y166.957
X-97.016Y167.392
X-97.683Y167.763
X-98.384Y168.064
X-99.112Y168.292
X-99.859Y168.446
X-100.618Y168.523
X-101.382
X-102.141Y168.446
X-102.888Y168.292
X-103.616Y168.064
X-104.317Y167.763
X-104.984Y167.392
X-105.611Y166.957
X-106.19Y166.46
X-106.715Y165.906
X-107.182Y165.303
X-107.586Y164.656
X-107.922Y163.97
X-108.187Y163.255
X-108.378Y162.516
X-108.494Y161.762
X-108.533Y161
Y131
X-108.571Y129.694
X-108.684Y128.392
X-108.874Y127.099
X-109.138Y125.819
X-109.476Y124.556
X-109.887Y123.316
X-110.37Y122.101
X-110.922Y120.917
X-111.543Y119.766
X-112.229Y118.654
X-112.978Y117.583
X-113.789Y116.558
X-114.658Y115.582
X-115.582Y114.658
X-116.558Y113.789
X-117.583Y112.978
X-118.654Y112.229
X-119.766Y111.543
X-120.917Y110.922
X-122.101Y110.37
X-123.316Y109.887
X-124.556Y109.476
X-125.819Y109.138
X-127.099Y108.874
X-128.392Y108.684
X-129.694Y108.571
X-131Y108.533
X-133.287
X-133.572Y108.561
X-133.847Y108.644
X-134.1Y108.779
X-134.322Y108.961
X-134.505Y109.182
X-134.641Y109.435
X-134.776Y109.688
X-134.959Y109.909
X-135.181Y110.091
X-135.434Y110.226
X-135.709Y110.309
X-135.994Y110.338
X-161
X-161.862Y110.298
X-162.716Y110.179
X-163.555Y109.981
X-164.373Y109.707
X-165.162Y109.359
X-165.916Y108.939
X-166.627Y108.451
X-167.291Y107.9
X-167.9Y107.291
X-168.451Y106.627
X-168.939Y105.916
X-169.359Y105.162
X-169.707Y104.373
X-169.981Y103.555
X-170.179Y102.716
X-170.298Y101.862
X-170.338Y101
X-170.298Y100.138
X-170.179Y99.284
X-169.981Y98.445
X-169.707Y97.627
X-169.359Y96.838
X-168.939Y96.084
X-168.451Y95.373
X-167.9Y94.709
X-167.291Y94.1
X-166.627Y93.549
X-165.916Y93.061
X-165.162Y92.641
X-164.373Y92.293
X-163.555Y92.019
X-162.716Y91.821
X-161.862Y91.702
X-161Y91.662
X-131
X-129.752Y91.625
X-128.509Y91.512
X-127.275Y91.324
X-126.055Y91.062
X-124.853Y90.727
X-123.673Y90.32
X-122.52Y89.842
X-121.398Y89.296
X-120.311Y88.683
X-119.262Y88.005
X-118.257Y87.265
X-117.298Y86.466
X-116.389Y85.611
X-115.534Y84.702
X-114.735Y83.743
X-113.995Y82.738
X-113.317Y81.689
X-112.704Y80.602
X-112.158Y79.48
X-111.68Y78.327
X-111.273Y77.147
X-110.938Y75.945
X-110.676Y74.725
X-110.488Y73.491
X-110.375Y72.248
X-110.338Y71
Y41
X-110.298Y40.138
X-110.179Y39.284
X-109.981Y38.445
X-109.707Y37.627
X-109.359Y36.838
X-108.939Y36.084
X-108.451Y35.373
X-107.9Y34.709
X-107.291Y34.1
X-106.627Y33.549
X-105.916Y33.061
X-105.162Y32.641
X-104.373Y32.293
X-103.555Y32.019
X-102.716Y31.821
X-101.862Y31.702
X-101Y31.662
X-100.138Y31.702
X-99.284Y31.821
X-98.445Y32.019
X-97.627Y32.293
X-96.838Y32.641
X-96.084Y33.061
X-95.373Y33.549
X-94.709Y34.1
X-94.1Y34.709
X-93.549Y35.373
X-93.061Y36.084
X-92.641Y36.838
X-92.293Y37.627
X-92.019Y38.445
X-91.821Y39.284
X-91.702Y40.138
X-91.662Y41
Y71
X-91.625Y72.248
X-91.512Y73.491
X-91.324Y74.725
X-91.062Y75.945
X-90.727Y77.147
X-90.32Y78.327
X-89.842Y79.48
X-89.296Y80.602
X-88.683Y81.689
X-88.005Y82.738
X-87.265Y83.743
X-86.466Y84.702
X-85.611Y85.611
X-84.702Y86.466
X-83.743Y87.265
X-82.738Y88.005
X-81.689Y88.683
X-80.602Y89.296
X-79.48Y89.842
X-78.327Y90.32
X-77.147Y90.727
X-75.945Y91.062
X-74.725Y91.324
X-73.491Y91.512
X-72.248Y91.625
X-71Y91.662
X-41
X-40.138Y91.702
X-39.284Y91.821
X-38.445Y92.019
X-37.627Y92.293
X-36.838Y92.641
X-36.084Y93.061
X-35.373Y93.549
X-34.709Y94.1
X-34.1Y94.709
X-33.549Y95.373
X-33.061Y96.084
X-32.641Y96.838
X-32.293Y97.627
X-32.019Y98.445
X-31.821Y99.284
X-31.702Y100.138
X-31.662Y101
X-31.702Y101.862
X-31.821Y102.716
X-32.019Y103.555
X-32.293Y104.373
X-32.641Y105.162
X-33.061Y105.916
X-33.549Y106.627
X-34.1Y107.291
X-34.709Y107.9
X-35.373Y108.451
X-36.084Y108.939
X-36.838Y109.359
X-37.627Y109.707
X-38.445Y109.981
X-39.284Y110.179
X-40.138Y110.298
X-41Y110.338
X-71
X-72.248Y110.375
X-73.491Y110.488
X-74.725Y110.676
X-75.945Y110.938
X-77.147Y111.273
X-78.327Y111.68
X-79.48Y112.158
X-80.602Y112.704
X-81.689Y113.317
X-82.738Y113.995
X-83.743Y114.735
X-84.702Y115.534
X-85.611Y116.389
X-86.466Y117.298
X-87.265Y118.257
X-88.005Y119.262
X-88.683Y120.311
X-89.296Y121.398
X-89.842Y122.52
X-90.32Y123.673
X-90.727Y124.853
X-91.062Y126.055
X-91.324Y127.275
X-91.512Y128.509
X-91.625Y129.752
X-91.662Y131
Y161
X-91.702Y161.862
X-91.821Y162.716
X-92.019Y163.555
X-92.293Y164.373
X-92.641Y165.162
X-93.061Y165.916
X-93.549Y166.627
X-94.1Y167.291
X-94.709Y167.9
X-95.373Y168.451
X-96.084Y168.939
X-96.838Y169.359
X-97.627Y169.707
X-98.445Y169.981
X-99.284Y170.179
X-100.138Y170.298
X-101Y170.338
X-101.862Y170.298
X-102.716Y170.179
X-103.555Y169.981
X-104.373Y169.707
X-105.162Y169.359
X-105.916Y168.939
X-106.627Y168.451
X-107.291Y167.9
X-107.9Y167.291
X-108.451Y166.627
X-108.939Y165.916
X-109.359Y165.162
X-109.707Y164.373
X-109.981Y163.555
X-110.179Y162.716
X-110.298Y161.862
X-110.338Y161
Y131
X-110.375Y129.752
X-110.488Y128.509
X-110.676Y127.275
X-110.938Y126.055
X-111.273Y124.853
X-111.68Y123.673
X-112.158Y122.52
X-112.704Y121.398
X-113.317Y120.311
X-113.995Y119.262
X-114.735Y118.257
X-115.534Y117.298
X-116.389Y116.389
X-117.298Y115.534
X-118.257Y114.735
X-119.262Y113.995
X-120.311Y113.317
X-121.398Y112.704
X-122.52Y112.158
X-123.673Y111.68
X-124.853Y111.273
X-126.055Y110.938
X-127.275Y110.676
X-128.509Y110.488
X-129.752Y110.375
X-131Y110.338
X-135.994
X-136.28Y110.366
X-136.555Y110.449
X-136.808Y110.584
X-137.03Y110.766
X-137.212Y110.987
X-137.348Y111.24
X-137.484Y111.493
X-137.666Y111.714
X-137.888Y111.896
X-138.142Y112.031
X-138.416Y112.114
X-138.702Y112.143
X-161
X-161.92Y112.104
X-162.834Y111.991
X-163.735Y111.802
X-164.618Y111.539
X-165.476Y111.204
X-166.303Y110.8
X-167.094Y110.328
X-167.844Y109.793
X-168.547Y109.198
X-169.198Y108.547
X-169.793Y107.844
X-170.328Y107.094
X-170.8Y106.303
X-171.204Y105.476
X-171.539Y104.618
X-171.802Y103.735
X-171.991Y102.834
X-172.104Y101.92
X-172.143Y101
X-172.104Y100.08
X-171.991Y99.166
X-171.802Y98.265
X-171.539Y97.382
X-171.204Y96.524
X-170.8Y95.697
X-170.328Y94.906
X-169.793Y94.156
X-169.198Y93.453
X-168.547Y92.802
X-167.844Y92.207
X-167.094Y91.672
X-166.303Y91.2
X-165.476Y90.796
X-164.618Y90.461
X-163.735Y90.198
X-162.834Y90.009
X-161.92Y89.896
X-161Y89.857
X-131
X-129.816Y89.82
X-128.637Y89.709
X-127.466Y89.523
X-126.31Y89.265
X-125.173Y88.935
X-124.058Y88.533
X-122.971Y88.063
X-121.915Y87.525
X-120.896Y86.922
X-119.916Y86.256
X-118.98Y85.53
X-118.091Y84.747
X-117.253Y83.909
X-116.47Y83.02
X-115.744Y82.084
X-115.078Y81.104
X-114.475Y80.085
X-113.937Y79.029
X-113.467Y77.942
X-113.065Y76.827
X-112.735Y75.69
X-112.477Y74.534
X-112.291Y73.363
X-112.18Y72.184
X-112.143Y71
Y41
X-112.104Y40.08
X-111.991Y39.166
X-111.802Y38.265
X-111.539Y37.382
X-111.204Y36.524
X-110.8Y35.697
X-110.328Y34.906
X-109.793Y34.156
X-109.198Y33.453
X-108.547Y32.802
X-107.844Y32.207
X-107.094Y31.672
X-106.303Y31.2
X-105.476Y30.796
X-104.618Y30.461
X-103.735Y30.198
X-102.834Y30.009
X-101.92Y29.896
X-101Y29.857
X-100.08Y29.896
X-99.166Y30.009
X-98.265Y30.198
X-97.382Y30.461
X-96.524Y30.796
X-95.697Y31.2
X-94.906Y31.672
X-94.156Y32.207
X-93.453Y32.802
X-92.802Y33.453
X-92.207Y34.156
X-91.672Y34.906
X-91.2Y35.697
X-90.796Y36.524
X-90.461Y37.382
X-90.198Y38.265
X-90.009Y39.166
X-89.896Y40.08
X-89.857Y41
Y71
X-89.82Y72.184
X-89.709Y73.363
X-89.523Y74.534
X-89.265Y75.69
X-88.935Y76.827
X-88.533Y77.942
X-88.063Y79.029
X-87.525Y80.085
X-86.922Y81.104
X-86.256Y82.084
X-85.53Y83.02
X-84.747Y83.909
X-83.909Y84.747
X-83.02Y85.53
X-82.084Y86.256
X-81.104Y86.922
X-80.085Y87.525
X-79.029Y88.063
X-77.942Y88.533
X-76.827Y88.935
X-75.69Y89.265
X-74.534Y89.523
X-73.363Y89.709
X-72.184Y89.82
X-71Y89.857
X-41
X-40.08Y89.896
X-39.166Y90.009
X-38.265Y90.198
X-37.382Y90.461
X-36.524Y90.796
X-35.697Y91.2
X-34.906Y91.672
X-34.156Y92.207
X-33.453Y92.802
X-32.802Y93.453
X-32.207Y94.156
X-31.672Y94.906
X-31.2Y95.697
X-30.796Y96.524
X-30.461Y97.382
X-30.198Y98.265
X-30.009Y99.166
X-29.896Y100.08
X-29.857Y101
X-29.896Y101.92
X-30.009Y102.834
X-30.198Y103.735
X-30.461Y104.618
X-30.796Y105.476
X-31.2Y106.303
X-31.672Y107.094
X-32.207Y107.844
X-32.802Y108.547
X-33.453Y109.198
X-34.156Y109.793
X-34.906Y110.328
X-35.697Y110.8
X-36.524Y111.204
X-37.382Y111.539
X-38.265Y111.802
X-39.166Y111.991
X-40.08Y112.104
X-41Y112.143
X-71
X-72.184Y112.18
X-73.363Y112.291
X-74.534Y112.477
X-75.69Y112.735
X-76.827Y113.065
X-77.942Y113.467
X-79.029Y113.937
X-80.085Y114.475
X-81.104Y115.078
X-82.084Y115.744
X-83.02Y116.47
X-83.909Y117.253
X-84.747Y118.091
X-85.53Y118.98
X-86.256Y119.916
X-86.922Y120.896
X-87.525Y121.915
X-88.063Y122.971
X-88.533Y124.058
X-88.935Y125.173
X-89.265Y126.31
X-89.523Y127.466
X-89.709Y128.637
X-89.82Y129.816
X-89.857Y131
Y161
X-89.896Y161.92
X-90.009Y162.834
X-90.198Y163.735
X-90.461Y164.618
X-90.796Y165.476
X-91.2Y166.303
X-91.672Y167.094
X-92.207Y167.844
X-92.802Y168.547
X-93.453Y169.198
X-94.156Y169.793
X-94.906Y170.328
X-95.697Y170.8
X-96.524Y171.204
X-97.382Y171.539
X-98.265Y171.802
X-99.166Y171.991
X-100.08Y172.104
X-101Y172.143
X-101.92Y172.104
X-102.834Y171.991
X-103.735Y171.802
X-104.618Y171.539
X-105.476Y171.204
X-106.303Y170.8
X-107.094Y170.328
X-107.844Y169.793
X-108.547Y169.198
X-109.198Y168.547
X-109.793Y167.844
X-110.328Y167.094
X-110.8Y166.303
X-111.204Y165.476
X-111.539Y164.618
X-111.802Y163.735
X-111.991Y162.834
X-112.104Y161.92
X-112.143Y161
Y131
X-112.18Y129.816
X-112.291Y128.637
X-112.477Y127.466
X-112.735Y126.31
X-113.065Y125.173
X-113.467Y124.058
X-113.937Y122.971
X-114.475Y121.915
X-115.078Y120.896
X-115.744Y119.916
X-116.47Y118.98
X-117.253Y118.091
X-118.091Y117.253
X-118.98Y116.47
X-119.916Y115.744
X-120.896Y115.078
X-121.915Y114.475
X-122.971Y113.937
X-124.058Y113.467
X-125.173Y113.065
X-126.31Y112.735
X-127.466Y112.477
X-128.637Y112.291
X-129.816Y112.18
X-131Y112.143
X-138.702
X-138.987Y112.171
X-139.262Y112.254
X-139.515Y112.389
X-139.737Y112.571
X-139.92Y112.792
X-140.056Y113.045
X-140.191Y113.298
X-140.374Y113.519
X-140.596Y113.701
X-140.849Y113.836
X-141.124Y113.919
X-141.409Y113.948
X-161
X-162.016Y113.908
X-163.025Y113.788
X-164.023Y113.59
X-165.001Y113.314
X-165.955Y112.962
X-166.878Y112.536
X-167.765Y112.04
X-168.61Y111.475
X-169.409Y110.845
X-170.155Y110.155
X-170.845Y109.409
X-171.475Y108.61
X-172.04Y107.765
X-172.536Y106.878
X-172.962Y105.955
X-173.314Y105.001
X-173.59Y104.023
X-173.788Y103.025
X-173.908Y102.016
X-173.948Y101
X-173.908Y99.984
X-173.788Y98.975
X-173.59Y97.977
X-173.314Y96.999
X-172.962Y96.045
X-172.536Y95.122
X-172.04Y94.235
X-171.475Y93.39
X-170.845Y92.591
X-170.155Y91.845
X-169.409Y91.155
X-168.61Y90.525
X-167.765Y89.96
X-166.878Y89.464
X-165.955Y89.038
X-165.001Y88.686
X-164.023Y88.41
X-163.025Y88.212
X-162.016Y88.092
X-161Y88.052
X-131
X-129.836Y88.013
X-128.678Y87.894
X-127.531Y87.696
X-126.399Y87.42
X-125.289Y87.068
X-124.206Y86.641
X-123.155Y86.141
X-122.14Y85.57
X-121.166Y84.931
X-120.238Y84.228
X-119.361Y83.463
X-118.537Y82.639
X-117.772Y81.762
X-117.069Y80.834
X-116.43Y79.86
X-115.859Y78.845
X-115.359Y77.794
X-114.932Y76.711
X-114.58Y75.601
X-114.304Y74.469
X-114.106Y73.322
X-113.987Y72.164
X-113.948Y71
Y41
X-113.908Y39.984
X-113.788Y38.975
X-113.59Y37.977
X-113.314Y36.999
X-112.962Y36.045
X-112.536Y35.122
X-112.04Y34.235
X-111.475Y33.39
X-110.845Y32.591
X-110.155Y31.845
X-109.409Y31.155
X-108.61Y30.525
X-107.765Y29.96
X-106.878Y29.464
X-105.955Y29.038
X-105.001Y28.686
X-104.023Y28.41
X-103.025Y28.212
X-102.016Y28.092
X-101Y28.052
X-99.984Y28.092
X-98.975Y28.212
X-97.977Y28.41
X-96.999Y28.686
X-96.045Y29.038
X-95.122Y29.464
X-94.235Y29.96
X-93.39Y30.525
X-92.591Y31.155
X-91.845Y31.845
X-91.155Y32.591
X-90.525Y33.39
X-89.96Y34.235
X-89.464Y35.122
X-89.038Y36.045
X-88.686Y36.999
X-88.41Y37.977
X-88.212Y38.975
X-88.092Y39.984
X-88.052Y41
Y71
X-88.013Y72.164
X-87.894Y73.322
X-87.696Y74.469
X-87.42Y75.601
X-87.068Y76.711
X-86.641Y77.794
X-86.141Y78.845
X-85.57Y79.86
X-84.931Y80.834
X-84.228Y81.762
X-83.463Y82.639
X-82.639Y83.463
X-81.762Y84.228
X-80.834Y84.931
X-79.86Y85.57
X-78.845Y86.141
X-77.794Y86.641
X-76.711Y87.068
X-75.601Y87.42
X-74.469Y87.696
X-73.322Y87.894
X-72.164Y88.013
X-71Y88.052
X-41
X-39.984Y88.092
X-38.975Y88.212
X-37.977Y88.41
X-36.999Y88.686
X-36.045Y89.038
X-35.122Y89.464
X-34.235Y89.96
X-33.39Y90.525
X-32.591Y91.155
X-31.845Y91.845
X-31.155Y92.591
X-30.525Y93.39
X-29.96Y94.235
X-29.464Y95.122
X-29.038Y96.045
X-28.686Y96.999
X-28.41Y97.977
X-28.212Y98.975
X-28.092Y99.984
X-28.052Y101
X-28.092Y102.016
X-28.212Y103.025
X-28.41Y104.023
X-28.686Y105.001
X-29.038Y105.955
X-29.464Y106.878
X-29.96Y107.765
X-30.525Y108.61
X-31.155Y109.409
X-31.845Y110.155
X-32.591Y110.845
X-33.39Y111.475
X-34.235Y112.04
X-35.122Y112.536
X-36.045Y112.962
X-36.999Y113.314
X-37.977Y113.59
X-38.975Y113.788
X-39.984Y113.908
X-41Y113.948
X-71
X-72.164Y113.987
X-73.322Y114.106
X-74.469Y114.304
X-75.601Y114.58
X-76.711Y114.932
X-77.794Y115.359
X-78.845Y115.859
X-79.86Y116.43
X-80.834Y117.069
X-81.762Y117.772
X-82.639Y118.537
X-83.463Y119.361
X-84.228Y120.238
X-84.931Y121.166
X-85.57Y122.14
X-86.141Y123.155
X-86.641Y124.206
X-87.068Y125.289
X-87.42Y126.399
X-87.696Y127.531
X-87.894Y128.678
X-88.013Y129.836
X-88.052Y131
Y161
X-88.092Y162.016
X-88.212Y163.025
X-88.41Y164.023
X-88.686Y165.001
X-89.038Y165.955
X-89.464Y166.878
X-89.96Y167.765
X-90.525Y168.61
X-91.155Y169.409
X-91.845Y170.155
X-92.591Y170.845
X-93.39Y171.475
X-94.235Y172.04
X-95.122Y172.536
X-96.045Y172.962
X-96.999Y173.314
X-97.977Y173.59
X-98.975Y173.788
X-99.984Y173.908
X-101Y173.948
X-102.016Y173.908
X-103.025Y173.788
X-104.023Y173.59
X-105.001Y173.314
X-105.955Y172.962
X-106.878Y172.536
X-107.765Y172.04
X-108.61Y171.475
X-109.409Y170.845
X-110.155Y170.155
X-110.845Y169.409
X-111.475Y168.61
X-112.04Y167.765
X-112.536Y166.878
X-112.962Y165.955
X-113.314Y165.001
X-113.59Y164.023
X-113.788Y163.025
X-113.908Y162.016
X-113.948Y161
Y131
X-113.987Y129.836
X-114.106Y128.678
X-114.304Y127.531
X-114.58Y126.399
X-114.932Y125.289
X-115.359Y124.206
X-115.859Y123.155
X-116.43Y122.14
X-117.069Y121.166
X-117.772Y120.238
X-118.537Y119.361
X-119.361Y118.537
X-120.238Y117.772
X-121.166Y117.069
X-122.14Y116.43
X-123.155Y115.859
X-124.206Y115.359
X-125.289Y114.932
X-126.399Y114.58
X-127.531Y114.304
X-128.678Y114.106
X-129.836Y113.987
X-131Y113.948
X-141.409
X-141.695Y113.976
X-141.97Y114.059
X-142.223Y114.194
X-142.445Y114.376
X-142.627Y114.597
X-142.763Y114.85
X-142.899Y115.103
X-143.081Y115.324
X-143.303Y115.506
X-143.557Y115.641
X-143.831Y115.724
X-144.117Y115.753
X-161
X-162.077Y115.713
X-163.148Y115.595
X-164.208Y115.4
X-165.25Y115.127
X-166.27Y114.779
X-167.262Y114.358
X-168.22Y113.865
X-169.14Y113.304
X-170.016Y112.677
X-170.845Y111.987
X-171.62Y111.239
X-172.339Y110.437
X-172.998Y109.584
X-173.593Y108.685
X-174.12Y107.745
X-174.577Y106.77
X-174.962Y105.763
X-175.273Y104.731
X-175.507Y103.68
X-175.664Y102.613
X-175.743Y101.539
Y100.461
X-175.664Y99.387
X-175.507Y98.32
X-175.273Y97.269
X-174.962Y96.237
X-174.577Y95.23
X-174.12Y94.255
X-173.593Y93.315
X-172.998Y92.416
X-172.339Y91.563
X-171.62Y90.761
X-170.845Y90.013
X-170.016Y89.323
X-169.14Y88.696
X-168.22Y88.135
X-167.262Y87.642
X-166.27Y87.221
X-165.25Y86.873
X-164.208Y86.6
X-163.148Y86.405
X-162.077Y86.287
X-161Y86.247
X-131
X-129.912Y86.209
X-128.83Y86.092
X-127.759Y85.899
X-126.704Y85.63
X-125.672Y85.286
X-124.666Y84.87
X-123.693Y84.382
X-122.757Y83.827
X-121.863Y83.206
X-121.015Y82.523
X-120.218Y81.782
X-119.477Y80.985
X-118.794Y80.137
X-118.173Y79.243
X-117.618Y78.307
X-117.13Y77.334
X-116.714Y76.328
X-116.37Y75.296
X-116.101Y74.241
X-115.908Y73.17
X-115.791Y72.088
X-115.753Y71
Y41
X-115.713Y39.923
X-115.595Y38.852
X-115.4Y37.792
X-115.127Y36.75
X-114.779Y35.73
X-114.358Y34.738
X-113.865Y33.78
X-113.304Y32.86
X-112.677Y31.984
X-111.987Y31.155
X-111.239Y30.38
X-110.437Y29.661
X-109.584Y29.002
X-108.685Y28.407
X-107.745Y27.88
X-106.77Y27.423
X-105.763Y27.038
X-104.731Y26.727
X-103.68Y26.493
X-102.613Y26.336
X-101.539Y26.257
X-100.461
X-99.387Y26.336
X-98.32Y26.493
X-97.269Y26.727
X-96.237Y27.038
X-95.23Y27.423
X-94.255Y27.88
X-93.315Y28.407
X-92.416Y29.002
X-91.563Y29.661
X-90.761Y30.38
X-90.013Y31.155
X-89.323Y31.984
X-88.696Y32.86
X-88.135Y33.78
X-87.642Y34.738
X-87.221Y35.73
X-86.873Y36.75
X-86.6Y37.792
X-86.405Y38.852
X-86.287Y39.923
X-86.247Y41
Y71
X-86.209Y72.088
X-86.092Y73.17
X-85.899Y74.241
X-85.63Y75.296
X-85.286Y76.328
X-84.87Y77.334
X-84.382Y78.307
X-83.827Y79.243
X-83.206Y80.137
X-82.523Y80.985
X-81.782Y81.782
X-80.985Y82.523
X-80.137Y83.206
X-79.243Y83.827
X-78.307Y84.382
X-77.334Y84.87
X-76.328Y85.286
X-75.296Y85.63
X-74.241Y85.899
X-73.17Y86.092
X-72.088Y86.209
X-71Y86.247
X-41
X-39.923Y86.287
X-38.852Y86.405
X-37.792Y86.6
X-36.75Y86.873
X-35.73Y87.221
X-34.738Y87.642
X-33.78Y88.135
X-32.86Y88.696
X-31.984Y89.323
X-31.155Y90.013
X-30.38Y90.761
X-29.661Y91.563
X-29.002Y92.416
X-28.407Y93.315
X-27.88Y94.255
X-27.423Y95.23
X-27.038Y96.237
X-26.727Y97.269
X-26.493Y98.32
X-26.336Y99.387
X-26.257Y100.461
Y101.539
X-26.336Y102.613
X-26.493Y103.68
X-26.727Y104.731
X-27.038Y105.763
X-27.423Y106.77
X-27.88Y107.745
X-28.407Y108.685
X-29.002Y109.584
X-29.661Y110.437
X-30.38Y111.239
X-31.155Y111.987
X-31.984Y112.677
X-32.86Y113.304
X-33.78Y113.865
X-34.738Y114.358
X-35.73Y114.779
X-36.75Y115.127
X-37.792Y115.4
X-38.852Y115.595
X-39.923Y115.713
X-41Y115.753
X-71
X-72.088Y115.791
X-73.17Y115.908
X-74.241Y116.101
X-75.296Y116.37
X-76.328Y116.714
X-77.334Y117.13
X-78.307Y117.618
X-79.243Y118.173
X-80.137Y118.794
X-80.985Y119.477
X-81.782Y120.218
X-82.523Y121.015
X-83.206Y121.863
X-83.827Y122.757
X-84.382Y123.693
X-84.87Y124.666
X-85.286Y125.672
X-85.63Y126.704
X-85.899Y127.759
X-86.092Y128.83
X-86.209Y129.912
X-86.247Y131
Y161
X-86.287Y162.077
X-86.405Y163.148
X-86.6Y164.208
X-86.873Y165.25
X-87.221Y166.27
X-87.642Y167.262
X-88.135Y168.22
X-88.696Y169.14
X-89.323Y170.016
X-90.013Y170.845
X-90.761Y171.62
X-91.563Y172.339
X-92.416Y172.998
X-93.315Y173.593
X-94.255Y174.12
X-95.23Y174.577
X-96.237Y174.962
X-97.269Y175.273
X-98.32Y175.507
X-99.387Y175.664
X-100.461Y175.743
X-101.539
X-102.613Y175.664
X-103.68Y175.507
X-104.731Y175.273
X-105.763Y174.962
X-106.77Y174.577
X-107.745Y174.12
X-108.685Y173.593
X-109.584Y172.998
X-110.437Y172.339
X-111.239Y171.62
X-111.987Y170.845
X-112.677Y170.016
X-113.304Y169.14
X-113.865Y168.22
X-114.358Y167.262
X-114.779Y166.27
X-115.127Y165.25
X-115.4Y164.208
X-115.595Y163.148
X-115.713Y162.077
X-115.753Y161
Y131
X-115.791Y129.912
X-115.908Y128.83
X-116.101Y127.759
X-116.37Y126.704
X-116.714Y125.672
X-117.13Y124.666
X-117.618Y123.693
X-118.173Y122.757
X-118.794Y121.863
X-119.477Y121.015
X-120.218Y120.218
X-121.015Y119.477
X-121.863Y118.794
X-122.757Y118.173
X-123.693Y117.618
X-124.666Y117.13
X-125.672Y116.714
X-126.704Y116.37
X-127.759Y116.101
X-128.83Y115.908
X-129.912Y115.791
X-131Y115.753
X-144.117
X-144.402Y115.781
X-144.677Y115.864
X-144.93Y115.999
X-145.152Y116.181
X-145.335Y116.402
X-145.471Y116.655
X-145.606Y116.908
X-145.789Y117.129
X-146.011Y117.311
X-146.264Y117.446
X-146.539Y117.529
X-146.824Y117.558
X-161
X-162.13Y117.519
X-163.255Y117.403
X-164.369Y117.211
X-165.467Y116.944
X-166.545Y116.601
X-167.597Y116.187
X-168.618Y115.701
X-169.603Y115.147
X-170.548Y114.527
X-171.449Y113.844
X-172.301Y113.101
X-173.101Y112.301
X-173.844Y111.449
X-174.527Y110.548
X-175.147Y109.603
X-175.701Y108.618
X-176.187Y107.597
X-176.601Y106.545
X-176.944Y105.467
X-177.211Y104.369
X-177.403Y103.255
X-177.519Y102.13
X-177.558Y101
X-177.519Y99.87
X-177.403Y98.745
X-177.211Y97.631
X-176.944Y96.533
X-176.601Y95.455
X-176.187Y94.403
X-175.701Y93.382
X-175.147Y92.397
X-174.527Y91.452
X-173.844Y90.551
X-173.101Y89.699
X-172.301Y88.899
X-171.449Y88.156
X-170.548Y87.473
X-169.603Y86.853
X-168.618Y86.299
X-167.597Y85.813
X-166.545Y85.399
X-165.467Y85.056
X-164.369Y84.789
X-163.255Y84.597
X-162.13Y84.481
X-161Y84.442
X-131
X-129.995Y84.405
X-128.996Y84.292
X-128.009Y84.105
X-127.038Y83.845
X-126.089Y83.513
X-125.168Y83.111
X-124.279Y82.642
X-123.428Y82.107
X-122.619Y81.51
X-121.857Y80.854
X-121.146Y80.143
X-120.49Y79.381
X-119.893Y78.572
X-119.358Y77.721
X-118.889Y76.832
X-118.487Y75.911
X-118.155Y74.962
X-117.895Y73.991
X-117.708Y73.004
X-117.595Y72.005
X-117.558Y71
Y41
X-117.519Y39.87
X-117.403Y38.745
X-117.211Y37.631
X-116.944Y36.533
X-116.601Y35.455
X-116.187Y34.403
X-115.701Y33.382
X-115.147Y32.397
X-114.527Y31.452
X-113.844Y30.551
X-113.101Y29.699
X-112.301Y28.899
X-111.449Y28.156
X-110.548Y27.473
X-109.603Y26.853
X-108.618Y26.299
X-107.597Y25.813
X-106.545Y25.399
X-105.467Y25.056
X-104.369Y24.789
X-103.255Y24.597
X-102.13Y24.481
X-101Y24.442
X-99.87Y24.481
X-98.745Y24.597
X-97.631Y24.789
X-96.533Y25.056
X-95.455Y25.399
X-94.403Y25.813
X-93.382Y26.299
X-92.397Y26.853
X-91.452Y27.473
X-90.551Y28.156
X-89.699Y28.899
X-88.899Y29.699
X-88.156Y30.551
X-87.473Y31.452
X-86.853Y32.397
X-86.299Y33.382
X-85.813Y34.403
X-85.399Y35.455
X-85.056Y36.533
X-84.789Y37.631
X-84.597Y38.745
X-84.481Y39.87
X-84.442Y41
Y71
X-84.405Y72.005
X-84.292Y73.004
X-84.105Y73.991
X-83.845Y74.962
X-83.513Y75.911
X-83.111Y76.832
X-82.642Y77.721
X-82.107Y78.572
X-81.51Y79.381
X-80.854Y80.143
X-80.143Y80.854
X-79.381Y81.51
X-78.572Y82.107
X-77.721Y82.642
X-76.832Y83.111
X-75.911Y83.513
X-74.962Y83.845
X-73.991Y84.105
X-73.004Y84.292
X-72.005Y84.405
X-71Y84.442
X-41
X-39.87Y84.481
X-38.745Y84.597
X-37.631Y84.789
X-36.533Y85.056
X-35.455Y85.399
X-34.403Y85.813
X-33.382Y86.299
X-32.397Y86.853
X-31.452Y87.473
X-30.551Y88.156
X-29.699Y88.899
X-28.899Y89.699
X-28.156Y90.551
X-27.473Y91.452
X-26.853Y92.397
X-26.299Y93.382
X-25.813Y94.403
X-25.399Y95.455
X-25.056Y96.533
X-24.789Y97.631
X-24.597Y98.745
X-24.481Y99.87
X-24.442Y101
X-24.481Y102.13
X-24.597Y103.255
X-24.789Y104.369
X-25.056Y105.467
X-25.399Y106.545
X-25.813Y107.597
X-26.299Y108.618
X-26.853Y109.603
X-27.473Y110.548
X-28.156Y111.449
X-28.899Y112.301
X-29.699Y113.101
X-30.551Y113.844
X-31.452Y114.527
X-32.397Y115.147
X-33.382Y115.701
X-34.403Y116.187
X-35.455Y116.601
X-36.533Y116.944
X-37.631Y117.211
X-38.745Y117.403
X-39.87Y117.519
X-41Y117.558
X-71
X-72.005Y117.595
X-73.004Y117.708
X-73.991Y117.895
X-74.962Y118.155
X-75.911Y118.487
X-76.832Y118.889
X-77.721Y119.358
X-78.572Y119.893
X-79.381Y120.49
X-80.143Y121.146
X-80.854Y121.857
X-81.51Y122.619
X-82.107Y123.428
X-82.642Y124.279
X-83.111Y125.168
X-83.513Y126.089
X-83.845Y127.038
X-84.105Y128.009
X-84.292Y128.996
X-84.405Y129.995
X-84.442Y131
Y161
X-84.481Y162.13
X-84.597Y163.255
X-84.789Y164.369
X-85.056Y165.467
X-85.399Y166.545
X-85.813Y167.597
X-86.299Y168.618
X-86.853Y169.603
X-87.473Y170.548
X-88.156Y171.449
X-88.899Y172.301
X-89.699Y173.101
X-90.551Y173.844
X-91.452Y174.527
X-92.397Y175.147
X-93.382Y175.701
X-94.403Y176.187
X-95.455Y176.601
X-96.533Y176.944
X-97.631Y177.211
X-98.745Y177.403
X-99.87Y177.519
X-101Y177.558
X-102.13Y177.519
X-103.255Y177.403
X-104.369Y177.211
X-105.467Y176.944
X-106.545Y176.601
X-107.597Y176.187
X-108.618Y175.701
X-109.603Y175.147
X-110.548Y174.527
X-111.449Y173.844
X-112.301Y173.101
X-113.101Y172.301
X-113.844Y171.449
X-114.527Y170.548
X-115.147Y169.603
X-115.701Y168.618
X-116.187Y167.597
X-116.601Y166.545
X-116.944Y165.467
X-117.211Y164.369
X-117.403Y163.255
X-117.519Y162.13
X-117.558Y161
Y131
X-117.595Y129.995
X-117.708Y128.996
X-117.895Y128.009
X-118.155Y127.038
X-118.487Y126.089
X-118.889Y125.168
X-119.358Y124.279
X-119.893Y123.428
X-120.49Y122.619
X-121.146Y121.857
X-121.857Y121.146
X-122.619Y120.49
X-123.428Y119.893
X-124.279Y119.358
X-125.168Y118.889
X-126.089Y118.487
X-127.038Y118.155
X-128.009Y117.895
X-128.996Y117.708
X-129.995Y117.595
X-131Y117.558
X-146.824
X-147.118Y117.586
X-147.4Y117.672
X-147.66Y117.811
X-147.889Y117.997
X-148.076Y118.225
X-148.216Y118.485
X-148.355Y118.745
X-148.543Y118.973
X-148.771Y119.159
X-149.031Y119.298
X-149.313Y119.384
X-149.607Y119.412
X-161
X-162.204Y119.373
X-163.403Y119.255
X-164.592Y119.059
X-165.766Y118.785
X-166.919Y118.435
X-168.046Y118.011
X-169.144Y117.514
X-170.206Y116.946
X-171.229Y116.309
X-172.209Y115.608
X-173.14Y114.843
X-174.02Y114.02
X-174.843Y113.14
X-175.608Y112.209
X-176.309Y111.229
X-176.946Y110.206
X-177.514Y109.144
X-178.011Y108.046
X-178.435Y106.919
X-178.785Y105.766
X-179.059Y104.592
X-179.255Y103.403
X-179.373Y102.204
X-179.412Y101
X-179.373Y99.796
X-179.255Y98.597
X-179.059Y97.408
X-178.785Y96.234
X-178.435Y95.081
X-178.011Y93.954
X-177.514Y92.856
X-176.946Y91.794
X-176.309Y90.771
X-175.608Y89.791
X-174.843Y88.86
X-174.02Y87.98
X-173.14Y87.157
X-172.209Y86.392
X-171.229Y85.691
X-170.206Y85.054
X-169.144Y84.486
X-168.046Y83.989
X-166.919Y83.565
X-165.766Y83.215
X-164.592Y82.941
X-163.403Y82.745
X-162.204Y82.627
X-161Y82.588
X-131
X-130.043Y82.548
X-129.093Y82.429
X-128.155Y82.233
X-127.238Y81.96
X-126.345Y81.612
X-125.485Y81.191
X-124.662Y80.701
X-123.883Y80.144
X-123.152Y79.525
X-122.475Y78.848
X-121.856Y78.117
X-121.299Y77.338
X-120.809Y76.515
X-120.388Y75.655
X-120.04Y74.762
X-119.767Y73.845
X-119.571Y72.907
X-119.452Y71.957
X-119.412Y71
Y41
X-119.373Y39.796
X-119.255Y38.597
X-119.059Y37.408
X-118.785Y36.234
X-118.435Y35.081
X-118.011Y33.954
X-117.514Y32.856
X-116.946Y31.794
X-116.309Y30.771
X-115.608Y29.791
X-114.843Y28.86
X-114.02Y27.98
X-113.14Y27.157
X-112.209Y26.392
X-111.229Y25.691
X-110.206Y25.054
X-109.144Y24.486
X-108.046Y23.989
X-106.919Y23.565
X-105.766Y23.215
X-104.592Y22.941
X-103.403Y22.745
X-102.204Y22.627
X-101Y22.588
X-99.796Y22.627
X-98.597Y22.745
X-97.408Y22.941
X-96.234Y23.215
X-95.081Y23.565
X-93.954Y23.989
X-92.856Y24.486
X-91.794Y25.054
X-90.771Y25.691
X-89.791Y26.392
X-88.86Y27.157
X-87.98Y27.98
X-87.157Y28.86
X-86.392Y29.791
X-85.691Y30.771
X-85.054Y31.794
X-84.486Y32.856
X-83.989Y33.954
X-83.565Y35.081
X-83.215Y36.234
X-82.941Y37.408
X-82.745Y38.597
X-82.627Y39.796
X-82.588Y41
Y71
X-82.548Y71.957
X-82.429Y72.907
X-82.233Y73.845
X-81.96Y74.762
X-81.612Y75.655
X-81.191Y76.515
X-80.701Y77.338
X-80.144Y78.117
X-79.525Y78.848
X-78.848Y79.525
X-78.117Y80.144
X-77.338Y80.701
X-76.515Y81.191
X-75.655Y81.612
X-74.762Y81.96
X-73.845Y82.233
X-72.907Y82.429
X-71.957Y82.548
X-71Y82.588
X-41
X-39.796Y82.627
X-38.597Y82.745
X-37.408Y82.941
X-36.234Y83.215
X-35.081Y83.565
X-33.954Y83.989
X-32.856Y84.486
X-31.794Y85.054
X-30.771Y85.691
X-29.791Y86.392
X-28.86Y87.157
X-27.98Y87.98
X-27.157Y88.86
X-26.392Y89.791
X-25.691Y90.771
X-25.054Y91.794
X-24.486Y92.856
X-23.989Y93.954
X-23.565Y95.081
X-23.215Y96.234
X-22.941Y97.408
X-22.745Y98.597
X-22.627Y99.796
X-22.588Y101
X-22.627Y102.204
X-22.745Y103.403
X-22.941Y104.592
X-23.215Y105.766
X-23.565Y106.919
X-23.989Y108.046
X-24.486Y109.144
X-25.054Y110.206
X-25.691Y111.229
X-26.392Y112.209
X-27.157Y113.14
X-27.98Y114.02
X-28.86Y114.843
X-29.791Y115.608
X-30.771Y116.309
X-31.794Y116.946
X-32.856Y117.514
X-33.954Y118.011
X-35.081Y118.435
X-36.234Y118.785
X-37.408Y119.059
X-38.597Y119.255
X-39.796Y119.373
X-41Y119.412
X-71
X-71.957Y119.452
X-72.907Y119.571
X-73.845Y119.767
X-74.762Y120.04
X-75.655Y120.388
X-76.515Y120.809
X-77.338Y121.299
X-78.117Y121.856
X-78.848Y122.475
X-79.525Y123.152
X-80.144Y123.883
X-80.701Y124.662
X-81.191Y125.485
X-81.612Y126.345
X-81.96Y127.238
X-82.233Y128.155
X-82.429Y129.093
X-82.548Y130.043
X-82.588Y131
Y161
X-82.627Y162.204
X-82.745Y163.403
X-82.941Y164.592
X-83.215Y165.766
X-83.565Y166.919
X-83.989Y168.046
X-84.486Y169.144
X-85.054Y170.206
X-85.691Y171.229
X-86.392Y172.209
X-87.157Y173.14
X-87.98Y174.02
X-88.86Y174.843
X-89.791Y175.608
X-90.771Y176.309
X-91.794Y176.946
X-92.856Y177.514
X-93.954Y178.011
X-95.081Y178.435
X-96.234Y178.785
X-97.408Y179.059
X-98.597Y179.255
X-99.796Y179.373
X-101Y179.412
X-102.204Y179.373
X-103.403Y179.255
X-104.592Y179.059
X-105.766Y178.785
X-106.919Y178.435
X-108.046Y178.011
X-109.144Y177.514
X-110.206Y176.946
X-111.229Y176.309
X-112.209Y175.608
X-113.14Y174.843
X-114.02Y174.02
X-114.843Y173.14
X-115.608Y172.209
X-116.309Y171.229
X-116.946Y170.206
X-117.514Y169.144
X-118.011Y168.046
X-118.435Y166.919
X-118.785Y165.766
X-119.059Y164.592
X-119.255Y163.403
X-119.373Y162.204
X-119.412Y161
Y131
X-119.452Y130.043
X-119.571Y129.093
X-119.767Y128.155
X-120.04Y127.238
X-120.388Y126.345
X-120.809Y125.485
X-121.299Y124.662
X-121.856Y123.883
X-122.475Y123.152
X-123.152Y122.475
X-123.883Y121.856
X-124.662Y121.299
X-125.485Y120.809
X-126.345Y120.388
X-127.238Y120.04
X-128.155Y119.767
X-129.093Y119.571
X-130.043Y119.452
X-131Y119.412
X-149.607
X-149.728Z-0.976
X-149.831Z-0.907
X-149.9Z-0.804
X-149.924Z-0.683
Z5
X-103.114Y100.24
Z1.817F333.3
X-103.053Y99.94Z1.5
X-102.914Y99.623Z1.488
X-102.705Y99.347Z1.476
X-102.44Y99.125Z1.464
X-102.13Y98.97Z1.452
X-101.794Y98.89Z1.439
X-101.448Y98.888Z1.427
X-101.11Y98.965Z1.415
X-100.8Y99.117Z1.403
X-100.532Y99.336Z1.391
X-100.32Y99.61Z1.379
X-100.177Y99.925Z1.367
X-100.11Y100.265Z1.355
X-100.122Y100.61Z1.343
X-100.212Y100.945Z1.33
X-100.376Y101.249Z1.318
X-100.605Y101.509Z1.306
X-100.887Y101.709Z1.294
X-101.208Y101.84Z1.282
X-101.549Y101.894Z1.27
X-101.894Y101.869Z1.258
X-102.225Y101.765Z1.246
X-102.523Y101.59Z1.234
X-102.773Y101.351Z1.221
X-102.962Y101.061Z1.209
X-103.08Y100.736Z1.197
X-103.121Y100.392Z1.185
X-103.083Y100.048Z1.173
X-102.967Y99.722Z1.161
X-102.78Y99.431Z1.149
X-102.531Y99.19Z1.137
X-102.234Y99.013Z1.125
X-101.904Y98.907Z1.112
X-101.559Y98.88Z1.1
X-101.217Y98.932Z1.088
X-100.896Y99.06Z1.076
X-100.613Y99.259Z1.064
X-100.382Y99.516Z1.052
X-100.216Y99.82Z1.04
X-100.123Y100.153Z1.028
X-100.109Y100.499Z1.016
X-100.174Y100.839Z1.003
X-100.315Y101.155Z0.991
X-100.524Y101.431Z0.979
X-100.791Y101.651Z0.967
X-101.101Y101.805Z0.955
X-101.438Y101.885Z0.943
X-101.784Z0.931
X-102.121Y101.807Z0.919
X-102.431Y101.654Z0.907
X-102.698Y101.434Z0.894
X-102.908Y101.159Z0.882
X-103.05Y100.844Z0.87
X-103.117Y100.504Z0.858
X-103.104Y100.158Z0.846
X-103.012Y99.824Z0.834
X-102.847Y99.52Z0.822
X-102.617Y99.262Z0.81
X-102.334Y99.062Z0.798
X-102.013Y98.933Z0.785
X-101.672Y98.88Z0.773
X-101.326Y98.906Z0.761
X-100.997Y99.011Z0.749
X-100.699Y99.187Z0.737
X-100.45Y99.427Z0.725
X-100.262Y99.718Z0.713
X-100.145Y100.043Z0.701
X-100.105Y100.387Z0.689
X-100.145Y100.731Z0.676
X-100.262Y101.057Z0.664
X-100.45Y101.347Z0.652
X-100.699Y101.587Z0.64
X-100.997Y101.763Z0.628
X-101.327Y101.868Z0.616
X-101.672Y101.894Z0.604
X-102.014Y101.841Z0.592
X-102.335Y101.711Z0.58
X-102.618Y101.512Z0.567
X-102.848Y101.253Z0.555
X-103.013Y100.949Z0.543
X-103.104Y100.615Z0.531
X-103.117Y100.269Z0.519
X-103.05Y99.93Z0.507
X-102.908Y99.614Z0.495
X-102.698Y99.339Z0.483
X-102.431Y99.12Z0.471
X-102.12Y98.967Z0.458
X-101.783Y98.888Z0.446
X-101.437Y98.889Z0.434
X-101.1Y98.969Z0.422
X-100.791Y99.123Z0.41
X-100.524Y99.344Z0.398
X-100.315Y99.619Z0.386
X-100.174Y99.935Z0.374
X-100.109Y100.275Z0.362
X-100.123Y100.621Z0.349
X-100.216Y100.954Z0.337
X-100.382Y101.258Z0.325
X-100.613Y101.516Z0.313
X-100.896Y101.714Z0.301
X-101.218Y101.842Z0.289
X-101.56Y101.894Z0.277
X-101.905Y101.867Z0.265
X-102.234Y101.761Z0.253
X-102.531Y101.583Z0.24
X-102.78Y101.342Z0.228
X-102.967Y101.051Z0.216
X-103.083Y100.725Z0.204
X-103.121Y100.381Z0.192
X-103.08Y100.038Z0.18
X-102.962Y99.713Z0.168
X-102.773Y99.423Z0.156
X-102.523Y99.184Z0.144
X-102.224Y99.008Z0.131
X-101.894Y98.905Z0.119
X-101.549Y98.88Z0.107
X-101.207Y98.934Z0.095
X-100.887Y99.065Z0.083
X-100.605Y99.266Z0.071
X-100.376Y99.525Z0.059
X-100.212Y99.83Z0.047
X-100.122Y100.164Z0.035
X-100.11Y100.51Z0.022
X-100.178Y100.849Z0.01
X-100.321Y101.164Z-0.002
X-100.532Y101.438Z-0.014
X-100.8Y101.657Z-0.026
X-101.111Y101.809Z-0.038
X-101.448Y101.886Z-0.05
X-101.794Y101.884Z-0.062
X-102.131Y101.803Z-0.074
X-102.44Y101.648Z-0.087
X-102.706Y101.426Z-0.099
X-102.914Y101.15Z-0.111
X-103.054Y100.833Z-0.123
X-103.117Y100.493Z-0.135
X-103.102Y100.148Z-0.147
X-103.008Y99.815Z-0.159
X-102.841Y99.512Z-0.171
X-102.609Y99.255Z-0.183
X-102.325Y99.057Z-0.196
X-102.003Y98.93Z-0.208
X-101.661Y98.88Z-0.22
X-101.316Y98.908Z-0.232
X-100.987Y99.015Z-0.244
X-100.691Y99.194Z-0.256
X-100.443Y99.435Z-0.268
X-100.257Y99.727Z-0.28
X-100.142Y100.054Z-0.292
X-100.105Y100.398Z-0.304
X-100.147Y100.741Z-0.317
X-100.266Y101.066Z-0.329
X-100.457Y101.355Z-0.341
X-100.708Y101.593Z-0.353
X-101.007Y101.768Z-0.365
X-101.337Y101.87Z-0.377
X-101.683Y101.893Z-0.389
X-102.024Y101.838Z-0.401
X-102.344Y101.706Z-0.413
X-102.625Y101.505Z-0.426
X-102.854Y101.245Z-0.438
X-103.016Y100.939Z-0.45
X-103.105Y100.605Z-0.462
X-103.116Y100.259Z-0.474
X-103.047Y99.92Z-0.486
X-102.903Y99.605Z-0.498
X-102.691Y99.332Z-0.51
X-102.422Y99.114Z-0.522
X-102.11Y98.963Z-0.535
X-101.773Y98.887Z-0.547
X-101.427Y98.89Z-0.559
X-101.09Y98.972Z-0.571
X-100.782Y99.129Z-0.583
X-100.517Y99.351Z-0.595
X-100.31Y99.628Z-0.607
X-100.171Y99.945Z-0.619
X-100.108Y100.286Z-0.631
X-100.125Y100.631Z-0.644
X-100.22Y100.964Z-0.656
X-100.388Y101.267Z-0.668
X-100.621Y101.523Z-0.68
X-100.906Y101.719Z-0.692
X-101.228Y101.845Z-0.704
X-101.57Y101.894Z-0.716
X-101.915Y101.864Z-0.728
X-102.244Y101.757Z-0.74
X-102.54Y101.577Z-0.753
X-102.787Y101.334Z-0.765
X-102.972Y101.042Z-0.777
X-103.085Y100.715Z-0.789
X-103.121Y100.371Z-0.801
X-103.078Y100.028Z-0.813
X-102.957Y99.703Z-0.825
X-102.766Y99.415Z-0.837
X-102.514Y99.178Z-0.849
X-102.215Y99.004Z-0.862
X-101.884Y98.903Z-0.874
X-101.538Y98.881Z-0.886
X-101.197Y98.937Z-0.898
X-100.877Y99.07Z-0.91
X-100.597Y99.273Z-0.922
X-100.37Y99.534Z-0.934
X-100.208Y99.84Z-0.946
X-100.12Y100.174Z-0.958
X-100.111Y100.52Z-0.971
X-100.181Y100.859Z-0.983
X-100.326Y101.173Z-0.995
X-100.539Y101.446Z-1.007
X-100.809Y101.663Z-1.019
X-101.121Y101.812Z-1.031
X-101.459Y101.887Z-1.043
X-101.805Y101.883Z-1.055
X-102.141Y101.8Z-1.067
X-102.449Y101.642Z-1.08
X-102.713Y101.419Z-1.092
X-102.919Y101.141Z-1.104
X-103.057Y100.823Z-1.116
X-103.118Y100.483Z-1.128
X-103.1Y100.137Z-1.14
X-103.004Y99.805Z-1.152
X-102.835Y99.503Z-1.164
X-102.601Y99.248Z-1.176
X-102.316Y99.052Z-1.189
X-101.993Y98.927Z-1.201
X-101.65Y98.879Z-1.213
X-101.306Y98.91Z-1.225
X-100.977Y99.019Z-1.237
X-100.682Y99.2Z-1.249
X-100.436Y99.444Z-1.261
X-100.252Y99.737Z-1.273
X-100.14Y100.064Z-1.285
X-100.105Y100.408Z-1.298
X-100.15Y100.751Z-1.31
X-100.271Y101.075Z-1.322
X-100.464Y101.363Z-1.334
X-100.716Y101.599Z-1.346
X-101.016Y101.772Z-1.358
X-101.348Y101.872Z-1.37
X-101.693Y101.893Z-1.382
X-102.034Y101.835Z-1.394
X-102.353Y101.701Z-1.407
X-102.633Y101.498Z-1.419
X-102.86Y101.236Z-1.431
X-103.02Y100.929Z-1.443
X-103.107Y100.594Z-1.455
X-103.115Y100.248Z-1.467
X-103.044Y99.91Z-1.479
X-102.897Y99.596Z-1.491
X-102.683Y99.324Z-1.503
X-102.413Y99.108Z-1.516
X-102.1Y98.96Z-1.528
X-101.762Y98.886Z-1.54
X-101.416Y98.892Z-1.552
X-101.081Y98.976Z-1.564
X-100.773Y99.134Z-1.576
X-100.51Y99.359Z-1.588
X-100.304Y99.638Z-1.6
X-100.168Y99.956Z-1.612
X-100.108Y100.296Z-1.625
X-100.127Y100.642Z-1.637
X-100.224Y100.974Z-1.649
X-100.394Y101.275Z-1.661
X-100.629Y101.53Z-1.673
X-100.915Y101.724Z-1.685
X-101.238Y101.848Z-1.697
X-101.581Y101.895Z-1.709
X-101.926Y101.862Z-1.721
X-102.254Y101.752Z-1.734
X-102.548Y101.57Z-1.746
X-102.793Y101.326Z-1.758
X-102.976Y101.032Z-1.77
X-103.087Y100.705Z-1.782
X-103.121Y100.36Z-1.794
X-103.075Y100.017Z-1.806
X-102.952Y99.694Z-1.818
X-102.759Y99.407Z-1.83
X-102.506Y99.171Z-1.843
X-102.205Y99Z-1.855
X-101.873Y98.901Z-1.867
X-101.528Y98.881Z-1.879
X-101.187Y98.94Z-1.891
X-100.868Y99.076Z-1.903
X-100.589Y99.28Z-1.915
X-100.364Y99.542Z-1.927
X-100.204Y99.849Z-1.939
X-100.119Y100.185Z-1.952
X-100.112Y100.531Z-1.964
X-100.184Y100.869Z-1.976
X-100.332Y101.182Z-1.988
X-100.547Y101.453Z-2
X-100.775Y101.684F1000
X-100.878Y101.753
X-101Y101.778
X-101.122Y101.753
X-101.225Y101.684
X-101.684Y101.225
X-101.753Y101.122
X-101.778Y101
X-101.753Y100.878
X-101.684Y100.775
X-101.225Y100.316
X-101.122Y100.247
X-101Y100.222
X-100.878Y100.247
X-100.775Y100.316
X-100.316Y100.775
X-100.247Y100.878
X-100.222Y101
X-100.247Y101.122
X-100.316Y101.225
X-100.547Y101.453
X-100.717Y101.678
X-100.821Y101.94
X-100.851Y102.221
X-100.804Y102.499
X-100.778Y102.682
X-100.815Y102.863
X-100.909Y103.021
X-101.05Y103.14
X-101.222Y103.206
X-101.407Y103.212
X-101.583Y103.156
X-101.731Y103.046
X-102.671Y102.094
X-103.642Y101.173
X-103.709Y101.064
Y100.936
X-103.642Y100.827
X-102.381Y99.619
X-101.173Y98.358
X-101.064Y98.291
X-100.936
X-100.827Y98.358
X-99.619Y99.619
X-98.358Y100.827
X-98.291Y100.936
Y101.064
X-98.358Y101.173
X-99.619Y102.381
X-100.827Y103.642
X-100.936Y103.709
X-101.064
X-101.173Y103.642
X-101.731Y103.046
X-101.952Y102.856
X-102.207Y102.713
X-102.485Y102.623
X-102.775Y102.59
X-103.066Y102.614
X-103.346Y102.696
X-103.682Y102.788
X-104.029Y102.804
X-104.371Y102.742
X-104.691Y102.606
X-104.973Y102.402
X-105.67Y101.783
X-106.381Y101.181
X-106.444Y101.1
X-106.466Y101
X-106.444Y100.9
X-106.381Y100.819
X-105.263Y99.859
X-104.183Y98.858
X-103.142Y97.817
X-102.141Y96.737
X-101.181Y95.619
X-101.1Y95.556
X-101Y95.534
X-100.9Y95.556
X-100.819Y95.619
X-99.859Y96.737
X-98.858Y97.817
X-97.817Y98.858
X-96.737Y99.859
X-95.619Y100.819
X-95.556Y100.9
X-95.534Y101
X-95.556Y101.1
X-95.619Y101.181
X-96.737Y102.141
X-97.817Y103.142
X-98.858Y104.183
X-99.859Y105.263
X-100.819Y106.381
X-100.9Y106.444
X-101Y106.466
X-101.1Y106.444
X-101.181Y106.381
X-102.076Y105.336
X-103.006Y104.324
X-103.973Y103.345
X-104.973Y102.402
X-105.208Y102.228
X-105.472Y102.103
X-105.756Y102.033
X-106.048Y102.02
X-106.336Y102.065
X-106.611Y102.166
X-106.939Y102.282
X-107.284Y102.322
X-107.63Y102.285
X-107.959Y102.172
X-108.256Y101.99
X-109.314Y101.19
X-109.385Y101.107
X-109.411Y101
X-109.385Y100.893
X-109.314Y100.81
X-108.003Y99.811
X-106.739Y98.754
X-105.523Y97.642
X-104.358Y96.477
X-103.246Y95.261
X-102.189Y93.997
X-101.19Y92.686
X-101.107Y92.615
X-101Y92.589
X-100.893Y92.615
X-100.81Y92.686
X-99.811Y93.997
X-98.754Y95.261
X-97.642Y96.477
X-96.477Y97.642
X-95.261Y98.754
X-93.997Y99.811
X-92.686Y100.81
X-92.615Y100.893
X-92.589Y101
X-92.615Y101.107
X-92.686Y101.19
X-93.997Y102.189
X-95.261Y103.246
X-96.477Y104.358
X-97.642Y105.523
X-98.754Y106.739
X-99.811Y108.003
X-100.81Y109.314
X-100.893Y109.385
X-101Y109.411
X-101.107Y109.385
X-101.19Y109.314
X-102.223Y107.961
X-103.316Y106.658
X-104.469Y105.407
X-105.678Y104.21
X-106.941Y103.07
X-108.256Y101.99
X-108.502Y101.833
X-108.775Y101.728
X-109.064Y101.679
X-109.356Y101.687
X-109.641Y101.754
X-109.907Y101.875
X-110.226Y102.015
X-110.568Y102.081
X-110.916Y102.07
X-111.253Y101.983
X-111.562Y101.823
X-112.614Y101.149
X-112.676Y101.085
X-112.698Y101
X-112.676Y100.915
X-112.614Y100.851
X-111.242Y99.961
X-109.912Y99.007
X-108.628Y97.993
X-107.393Y96.92
X-106.21Y95.79
X-105.08Y94.607
X-104.007Y93.372
X-102.993Y92.088
X-102.039Y90.758
X-101.149Y89.386
X-101.085Y89.324
X-101Y89.302
X-100.915Y89.324
X-100.851Y89.386
X-99.961Y90.758
X-99.007Y92.088
X-97.993Y93.372
X-96.92Y94.607
X-95.79Y95.79
X-94.607Y96.92
X-93.372Y97.993
X-92.088Y99.007
X-90.758Y99.961
X-89.386Y100.851
X-89.324Y100.915
X-89.302Y101
X-89.324Y101.085
X-89.386Y101.149
X-90.758Y102.039
X-92.088Y102.993
X-93.372Y104.007
X-94.607Y105.08
X-95.79Y106.21
X-96.92Y107.393
X-97.993Y108.628
X-99.007Y109.912
X-99.961Y111.242
X-100.851Y112.614
X-100.915Y112.676
X-101Y112.698
X-101.085Y112.676
X-101.149Y112.614
X-101.969Y111.345
X-102.843Y110.112
X-103.769Y108.918
X-104.746Y107.765
X-105.772Y106.656
X-106.845Y105.591
X-107.962Y104.574
X-109.122Y103.606
X-110.323Y102.688
X-111.562Y101.823
X-111.821Y101.686
X-112.101Y101.602
X-112.393Y101.576
X-112.684Y101.607
X-112.963Y101.695
X-113.22Y101.837
X-113.526Y102.002
X-113.862Y102.095
X-114.21Y102.112
X-114.553Y102.052
X-114.875Y101.918
X-115.638Y101.507
X-116.412Y101.117
X-116.477Y101.047
Y100.953
X-116.412Y100.883
X-115.015Y100.159
X-113.653Y99.371
X-112.331Y98.518
X-111.05Y97.604
X-109.814Y96.631
X-108.625Y95.6
X-107.486Y94.514
X-106.4Y93.375
X-105.369Y92.186
X-104.396Y90.95
X-103.482Y89.669
X-102.629Y88.347
X-101.841Y86.985
X-101.117Y85.588
X-101.047Y85.523
X-100.953
X-100.883Y85.588
X-100.159Y86.985
X-99.371Y88.347
X-98.518Y89.669
X-97.604Y90.95
X-96.631Y92.186
X-95.6Y93.375
X-94.514Y94.514
X-93.375Y95.6
X-92.186Y96.631
X-90.95Y97.604
X-89.669Y98.518
X-88.347Y99.371
X-86.985Y100.159
X-85.588Y100.883
X-85.523Y100.953
Y101.047
X-85.588Y101.117
X-86.985Y101.841
X-88.347Y102.629
X-89.669Y103.482
X-90.95Y104.396
X-92.186Y105.369
X-93.375Y106.4
X-94.514Y107.486
X-95.6Y108.625
X-96.631Y109.814
X-97.604Y111.05
X-98.518Y112.331
X-99.371Y113.653
X-100.159Y115.015
X-100.883Y116.412
X-100.953Y116.477
X-101.047
X-101.117Y116.412
X-101.835Y115.026
X-102.617Y113.675
X-103.461Y112.361
X-104.366Y111.089
X-105.33Y109.861
X-106.351Y108.68
X-107.425Y107.547
X-108.552Y106.467
X-109.728Y105.44
X-110.952Y104.47
X-112.219Y103.558
X-113.528Y102.707
X-114.875Y101.918
X-115.144Y101.802
X-115.431Y101.741
X-115.724Y101.738
X-116.012Y101.794
X-116.283Y101.905
X-116.527Y102.067
X-116.82Y102.257
X-117.147Y102.378
X-117.492Y102.424
X-117.84Y102.393
X-118.172Y102.287
X-119.164Y101.864
X-120.17Y101.475
X-121.189Y101.121
X-121.252Y101.075
X-121.277Y101
X-121.252Y100.925
X-121.189Y100.879
X-119.729Y100.359
X-118.297Y99.768
X-116.895Y99.108
X-115.528Y98.379
X-114.198Y97.584
X-112.909Y96.724
X-111.664Y95.801
X-110.466Y94.819
X-109.317Y93.778
X-108.222Y92.683
X-107.181Y91.534
X-106.199Y90.336
X-105.276Y89.091
X-104.416Y87.802
X-103.621Y86.472
X-102.892Y85.105
X-102.232Y83.703
X-101.641Y82.271
X-101.121Y80.811
X-101.075Y80.748
X-101Y80.723
X-100.925Y80.748
X-100.879Y80.811
X-100.359Y82.271
X-99.768Y83.703
X-99.108Y85.105
X-98.379Y86.472
X-97.584Y87.802
X-96.724Y89.091
X-95.801Y90.336
X-94.819Y91.534
X-93.778Y92.683
X-92.683Y93.778
X-91.534Y94.819
X-90.336Y95.801
X-89.091Y96.724
X-87.802Y97.584
X-86.472Y98.379
X-85.105Y99.108
X-83.703Y99.768
X-82.271Y100.359
X-80.811Y100.879
X-80.748Y100.925
X-80.723Y101
X-80.748Y101.075
X-80.811Y101.121
X-82.271Y101.641
X-83.703Y102.232
X-85.105Y102.892
X-86.472Y103.621
X-87.802Y104.416
X-89.091Y105.276
X-90.336Y106.199
X-91.534Y107.181
X-92.683Y108.222
X-93.778Y109.317
X-94.819Y110.466
X-95.801Y111.664
X-96.724Y112.909
X-97.584Y114.198
X-98.379Y115.528
X-99.108Y116.895
X-99.768Y118.297
X-100.359Y119.729
X-100.879Y121.189
X-100.925Y121.252
X-101Y121.277
X-101.075Y121.252
X-101.121Y121.189
X-101.638Y119.737
X-102.225Y118.311
X-102.881Y116.917
X-103.605Y115.556
X-104.395Y114.232
X-105.249Y112.948
X-106.164Y111.708
X-107.139Y110.514
X-108.172Y109.37
X-109.259Y108.277
X-110.399Y107.239
X-111.588Y106.258
X-112.823Y105.337
X-114.103Y104.477
X-115.423Y103.681
X-116.78Y102.95
X-118.172Y102.287
X-118.443Y102.197
X-118.727Y102.162
X-119.013Y102.184
X-119.288Y102.262
X-119.543Y102.393
X-119.766Y102.571
X-120.034Y102.78
X-120.342Y102.926
X-120.674Y103
X-121.014
X-121.346Y102.926
X-122.685Y102.501
X-124.042Y102.139
X-125.415Y101.843
X-126.8Y101.611
X-128.195Y101.445
X-129.596Y101.346
X-131Y101.313
X-161
X-161.136Y101.282
X-161.244Y101.195
X-161.305Y101.07
Y100.93
X-161.244Y100.805
X-161.136Y100.718
X-161Y100.688
X-131
X-129.496Y100.649
X-127.997Y100.535
X-126.504Y100.345
X-125.024Y100.08
X-123.559Y99.74
X-122.113Y99.326
X-120.689Y98.84
X-119.293Y98.282
X-117.926Y97.654
X-116.593Y96.957
X-115.296Y96.194
X-114.04Y95.366
X-112.828Y94.476
X-111.662Y93.526
X-110.546Y92.517
X-109.483Y91.454
X-108.474Y90.338
X-107.524Y89.172
X-106.634Y87.96
X-105.806Y86.704
X-105.043Y85.407
X-104.346Y84.074
X-103.718Y82.707
X-103.16Y81.311
X-102.674Y79.887
X-102.26Y78.441
X-101.92Y76.976
X-101.655Y75.496
X-101.465Y74.003
X-101.351Y72.504
X-101.313Y71
Y41
X-101.282Y40.864
X-101.195Y40.756
X-101.07Y40.695
X-100.93
X-100.805Y40.756
X-100.718Y40.864
X-100.688Y41
Y71
X-100.649Y72.504
X-100.535Y74.003
X-100.345Y75.496
X-100.08Y76.976
X-99.74Y78.441
X-99.326Y79.887
X-98.84Y81.311
X-98.282Y82.707
X-97.654Y84.074
X-96.957Y85.407
X-96.194Y86.704
X-95.366Y87.96
X-94.476Y89.172
X-93.526Y90.338
X-92.517Y91.454
X-91.454Y92.517
X-90.338Y93.526
X-89.172Y94.476
X-87.96Y95.366
X-86.704Y96.194
X-85.407Y96.957
X-84.074Y97.654
X-82.707Y98.282
X-81.311Y98.84
X-79.887Y99.326
X-78.441Y99.74
X-76.976Y100.08
X-75.496Y100.345
X-74.003Y100.535
X-72.504Y100.649
X-71Y100.688
X-41
X-40.864Y100.718
X-40.756Y100.805
X-40.695Y100.93
Y101.07
X-40.756Y101.195
X-40.864Y101.282
X-41Y101.313
X-71
X-72.504Y101.351
X-74.003Y101.465
X-75.496Y101.655
X-76.976Y101.92
X-78.441Y102.26
X-79.887Y102.674
X-81.311Y103.16
X-82.707Y103.718
X-84.074Y104.346
X-85.407Y105.043
X-86.704Y105.806
X-87.96Y106.634
X-89.172Y107.524
X-90.338Y108.474
X-91.454Y109.483
X-92.517Y110.546
X-93.526Y111.662
X-94.476Y112.828
X-95.366Y114.04
X-96.194Y115.296
X-96.957Y116.593
X-97.654Y117.926
X-98.282Y119.293
X-98.84Y120.689
X-99.326Y122.113
X-99.74Y123.559
X-100.08Y125.024
X-100.345Y126.504
X-100.535Y127.997
X-100.649Y129.496
X-100.688Y131
Y161
X-100.718Y161.136
X-100.805Y161.244
X-100.93Y161.305
X-101.07
X-101.195Y161.244
X-101.282Y161.136
X-101.313Y161
Y131
X-101.352Y129.467
X-101.471Y127.939
X-101.668Y126.418
X-101.944Y124.91
X-102.297Y123.418
X-102.727Y121.946
X-103.232Y120.499
X-103.811Y119.079
X-104.463Y117.691
X-105.185Y116.339
X-105.976Y115.026
X-106.835Y113.755
X-107.757Y112.531
X-108.742Y111.355
X-109.785Y110.232
X-110.886Y109.165
X-112.04Y108.156
X-113.245Y107.207
X-114.497Y106.322
X-115.793Y105.503
X-117.129Y104.752
X-118.503Y104.071
X-119.91Y103.462
X-121.346Y102.926
X-121.632Y102.858
X-121.926Y102.849
X-122.216Y102.898
X-122.49Y103.003
X-122.739Y103.16
X-122.951Y103.363
X-123.206Y103.602
X-123.506Y103.78
X-123.838Y103.888
X-124.186Y103.921
X-124.532Y103.878
X-125.809Y103.605
X-127.097Y103.392
X-128.393Y103.24
X-129.695Y103.148
X-131Y103.118
X-161
X-161.389Y103.081
X-161.765Y102.975
X-162.115Y102.8
X-162.427Y102.565
X-162.69Y102.276
X-162.896Y101.944
X-163.037Y101.579
X-163.108Y101.195
Y100.805
X-163.037Y100.421
X-162.896Y100.056
X-162.69Y99.724
X-162.427Y99.435
X-162.115Y99.2
X-161.765Y99.025
X-161.389Y98.919
X-161Y98.882
X-131
X-129.541Y98.844
X-128.085Y98.73
X-126.638Y98.539
X-125.203Y98.273
X-123.783Y97.932
X-122.384Y97.518
X-121.008Y97.031
X-119.659Y96.472
X-118.342Y95.843
X-117.059Y95.147
X-115.814Y94.384
X-114.611Y93.557
X-113.453Y92.669
X-112.343Y91.721
X-111.284Y90.716
X-110.279Y89.657
X-109.331Y88.547
X-108.443Y87.389
X-107.616Y86.186
X-106.853Y84.941
X-106.157Y83.658
X-105.528Y82.341
X-104.969Y80.992
X-104.482Y79.616
X-104.068Y78.217
X-103.727Y76.797
X-103.461Y75.362
X-103.27Y73.915
X-103.156Y72.459
X-103.118Y71
Y41
X-103.081Y40.611
X-102.975Y40.235
X-102.8Y39.885
X-102.565Y39.573
X-102.276Y39.31
X-101.944Y39.104
X-101.579Y38.963
X-101.195Y38.892
X-100.805
X-100.421Y38.963
X-100.056Y39.104
X-99.724Y39.31
X-99.435Y39.573
X-99.2Y39.885
X-99.025Y40.235
X-98.919Y40.611
X-98.882Y41
Y71
X-98.844Y72.459
X-98.73Y73.915
X-98.539Y75.362
X-98.273Y76.797
X-97.932Y78.217
X-97.518Y79.616
X-97.031Y80.992
X-96.472Y82.341
X-95.843Y83.658
X-95.147Y84.941
X-94.384Y86.186
X-93.557Y87.389
X-92.669Y88.547
X-91.721Y89.657
X-90.716Y90.716
X-89.657Y91.721
X-88.547Y92.669
X-87.389Y93.557
X-86.186Y94.384
X-84.941Y95.147
X-83.658Y95.843
X-82.341Y96.472
X-80.992Y97.031
X-79.616Y97.518
X-78.217Y97.932
X-76.797Y98.273
X-75.362Y98.539
X-73.915Y98.73
X-72.459Y98.844
X-71Y98.882
X-41
X-40.611Y98.919
X-40.235Y99.025
X-39.885Y99.2
X-39.573Y99.435
X-39.31Y99.724
X-39.104Y100.056
X-38.963Y100.421
X-38.892Y100.805
Y101.195
X-38.963Y101.579
X-39.104Y101.944
X-39.31Y102.276
X-39.573Y102.565
X-39.885Y102.8
X-40.235Y102.975
X-40.611Y103.081
X-41Y103.118
X-71
X-72.459Y103.156
X-73.915Y103.27
X-75.362Y103.461
X-76.797Y103.727
X-78.217Y104.068
X-79.616Y104.482
X-80.992Y104.969
X-82.341Y105.528
X-83.658Y106.157
X-84.941Y106.853
X-86.186Y107.616
X-87.389Y108.443
X-88.547Y109.331
X-89.657Y110.279
X-90.716Y111.284
X-91.721Y112.343
X-92.669Y113.453
X-93.557Y114.611
X-94.384Y115.814
X-95.147Y117.059
X-95.843Y118.342
X-96.472Y119.659
X-97.031Y121.008
X-97.518Y122.384
X-97.932Y123.783
X-98.273Y125.203
X-98.539Y126.638
X-98.73Y128.085
X-98.844Y129.541
X-98.882Y131
Y161
X-98.919Y161.389
X-99.025Y161.765
X-99.2Y162.115
X-99.435Y162.427
X-99.724Y162.69
X-100.056Y162.896
X-100.421Y163.037
X-100.805Y163.108
X-101.195
X-101.579Y163.037
X-101.944Y162.896
X-102.276Y162.69
X-102.565Y162.427
X-102.8Y162.115
X-102.975Y161.765
X-103.081Y161.389
X-103.118Y161
Y131
X-103.157Y129.51
X-103.277Y128.024
X-103.475Y126.547
X-103.753Y125.082
X-104.108Y123.634
X-104.54Y122.208
X-105.048Y120.806
X-105.63Y119.434
X-106.284Y118.094
X-107.009Y116.792
X-107.803Y115.53
X-108.663Y114.313
X-109.586Y113.143
X-110.571Y112.024
X-111.615Y110.959
X-112.713Y109.952
X-113.864Y109.004
X-115.064Y108.12
X-116.31Y107.301
X-117.597Y106.55
X-118.923Y105.869
X-120.284Y105.259
X-121.675Y104.723
X-123.092Y104.262
X-124.532Y103.878
X-124.824Y103.839
X-125.118Y103.858
X-125.402Y103.934
X-125.665Y104.066
X-125.897Y104.247
X-126.089Y104.471
X-126.319Y104.734
X-126.601Y104.941
X-126.92Y105.082
X-127.263Y105.151
X-127.613Y105.143
X-128.738Y105.021
X-129.868Y104.947
X-131Y104.923
X-161
X-161.558Y104.883
X-162.105Y104.764
X-162.629Y104.568
X-163.121Y104.3
X-163.569Y103.964
X-163.964Y103.569
X-164.3Y103.121
X-164.568Y102.629
X-164.764Y102.105
X-164.883Y101.558
X-164.923Y101
X-164.883Y100.442
X-164.764Y99.895
X-164.568Y99.371
X-164.3Y98.879
X-163.964Y98.431
X-163.569Y98.036
X-163.121Y97.7
X-162.629Y97.432
X-162.105Y97.236
X-161.558Y97.117
X-161Y97.077
X-131
X-129.588Y97.039
X-128.181Y96.925
X-126.781Y96.734
X-125.394Y96.468
X-124.024Y96.127
X-122.673Y95.712
X-121.348Y95.225
X-120.05Y94.667
X-118.785Y94.04
X-117.556Y93.345
X-116.366Y92.584
X-115.219Y91.76
X-114.118Y90.875
X-113.067Y89.932
X-112.068Y88.933
X-111.125Y87.882
X-110.24Y86.781
X-109.416Y85.634
X-108.655Y84.444
X-107.96Y83.215
X-107.333Y81.95
X-106.775Y80.652
X-106.288Y79.327
X-105.873Y77.976
X-105.532Y76.606
X-105.266Y75.219
X-105.075Y73.819
X-104.961Y72.412
X-104.923Y71
Y41
X-104.883Y40.442
X-104.764Y39.895
X-104.568Y39.371
X-104.3Y38.879
X-103.964Y38.431
X-103.569Y38.036
X-103.121Y37.7
X-102.629Y37.432
X-102.105Y37.236
X-101.558Y37.117
X-101Y37.077
X-100.442Y37.117
X-99.895Y37.236
X-99.371Y37.432
X-98.879Y37.7
X-98.431Y38.036
X-98.036Y38.431
X-97.7Y38.879
X-97.432Y39.371
X-97.236Y39.895
X-97.117Y40.442
X-97.077Y41
Y71
X-97.039Y72.412
X-96.925Y73.819
X-96.734Y75.219
X-96.468Y76.606
X-96.127Y77.976
X-95.712Y79.327
X-95.225Y80.652
X-94.667Y81.95
X-94.04Y83.215
X-93.345Y84.444
X-92.584Y85.634
X-91.76Y86.781
X-90.875Y87.882
X-89.932Y88.933
X-88.933Y89.932
X-87.882Y90.875
X-86.781Y91.76
X-85.634Y92.584
X-84.444Y93.345
X-83.215Y94.04
X-81.95Y94.667
X-80.652Y95.225
X-79.327Y95.712
X-77.976Y96.127
X-76.606Y96.468
X-75.219Y96.734
X-73.819Y96.925
X-72.412Y97.039
X-71Y97.077
X-41
X-40.442Y97.117
X-39.895Y97.236
X-39.371Y97.432
X-38.879Y97.7
X-38.431Y98.036
X-38.036Y98.431
X-37.7Y98.879
X-37.432Y99.371
X-37.236Y99.895
X-37.117Y100.442
X-37.077Y101
X-37.117Y101.558
X-37.236Y102.105
X-37.432Y102.629
X-37.7Y103.121
X-38.036Y103.569
X-38.431Y103.964
X-38.879Y104.3
X-39.371Y104.568
X-39.895Y104.764
X-40.442Y104.883
X-41Y104.923
X-71
X-72.412Y104.961
X-73.819Y105.075
X-75.219Y105.266
X-76.606Y105.532
X-77.976Y105.873
X-79.327Y106.288
X-80.652Y106.775
X-81.95Y107.333
X-83.215Y107.96
X-84.444Y108.655
X-85.634Y109.416
X-86.781Y110.24
X-87.882Y111.125
X-88.933Y112.068
X-89.932Y113.067
X-90.875Y114.118
X-91.76Y115.219
X-92.584Y116.366
X-93.345Y117.556
X-94.04Y118.785
X-94.667Y120.05
X-95.225Y121.348
X-95.712Y122.673
X-96.127Y124.024
X-96.468Y125.394
X-96.734Y126.781
X-96.925Y128.181
X-97.039Y129.588
X-97.077Y131
Y161
X-97.117Y161.558
X-97.236Y162.105
X-97.432Y162.629
X-97.7Y163.121
X-98.036Y163.569
X-98.431Y163.964
X-98.879Y164.3
X-99.371Y164.568
X-99.895Y164.764
X-100.442Y164.883
X-101Y164.923
X-101.558Y164.883
X-102.105Y164.764
X-102.629Y164.568
X-103.121Y164.3
X-103.569Y163.964
X-103.964Y163.569
X-104.3Y163.121
X-104.568Y162.629
X-104.764Y162.105
X-104.883Y161.558
X-104.923Y161
Y131
X-104.96Y129.609
X-105.071Y128.223
X-105.256Y126.844
X-105.514Y125.477
X-105.845Y124.126
X-106.247Y122.794
X-106.72Y121.486
X-107.262Y120.204
X-107.872Y118.954
X-108.547Y117.738
X-109.286Y116.559
X-110.087Y115.422
X-110.948Y114.329
X-111.865Y113.283
X-112.837Y112.288
X-113.861Y111.346
X-114.933Y110.46
X-116.052Y109.632
X-117.212Y108.865
X-118.412Y108.162
X-119.648Y107.523
X-120.916Y106.951
X-122.213Y106.447
X-123.535Y106.014
X-124.878Y105.651
X-126.239Y105.361
X-127.613Y105.143
X-127.907Y105.134
X-128.198Y105.184
X-128.473Y105.29
X-128.722Y105.449
X-128.934Y105.654
X-129.101Y105.897
X-129.302Y106.183
X-129.56Y106.419
X-129.863Y106.595
X-130.197Y106.7
X-130.546Y106.732
X-131Y106.728
X-161
X-161.665Y106.689
X-162.321Y106.573
X-162.959Y106.382
X-163.57Y106.118
X-164.147Y105.785
X-164.682Y105.388
X-165.166Y104.93
X-165.594Y104.42
X-165.96Y103.864
X-166.259Y103.269
X-166.487Y102.643
X-166.64Y101.995
X-166.718Y101.333
Y100.667
X-166.64Y100.005
X-166.487Y99.357
X-166.259Y98.731
X-165.96Y98.136
X-165.594Y97.58
X-165.166Y97.07
X-164.682Y96.612
X-164.147Y96.215
X-163.57Y95.882
X-162.959Y95.618
X-162.321Y95.427
X-161.665Y95.311
X-161Y95.272
X-131
X-129.639Y95.234
X-128.282Y95.12
X-126.934Y94.93
X-125.599Y94.664
X-124.281Y94.324
X-122.983Y93.91
X-121.711Y93.425
X-120.469Y92.869
X-119.259Y92.244
X-118.086Y91.552
X-116.954Y90.796
X-115.866Y89.977
X-114.826Y89.099
X-113.837Y88.163
X-112.901Y87.174
X-112.023Y86.134
X-111.204Y85.046
X-110.448Y83.914
X-109.756Y82.741
X-109.131Y81.531
X-108.575Y80.289
X-108.09Y79.017
X-107.676Y77.719
X-107.336Y76.401
X-107.07Y75.066
X-106.88Y73.718
X-106.766Y72.361
X-106.728Y71
Y41
X-106.689Y40.335
X-106.573Y39.679
X-106.382Y39.041
X-106.118Y38.43
X-105.785Y37.853
X-105.388Y37.318
X-104.93Y36.834
X-104.42Y36.406
X-103.864Y36.04
X-103.269Y35.741
X-102.643Y35.513
X-101.995Y35.36
X-101.333Y35.282
X-100.667
X-100.005Y35.36
X-99.357Y35.513
X-98.731Y35.741
X-98.136Y36.04
X-97.58Y36.406
X-97.07Y36.834
X-96.612Y37.318
X-96.215Y37.853
X-95.882Y38.43
X-95.618Y39.041
X-95.427Y39.679
X-95.311Y40.335
X-95.272Y41
Y71
X-95.234Y72.361
X-95.12Y73.718
X-94.93Y75.066
X-94.664Y76.401
X-94.324Y77.719
X-93.91Y79.017
X-93.425Y80.289
X-92.869Y81.531
X-92.244Y82.741
X-91.552Y83.914
X-90.796Y85.046
X-89.977Y86.134
X-89.099Y87.174
X-88.163Y88.163
X-87.174Y89.099
X-86.134Y89.977
X-85.046Y90.796
X-83.914Y91.552
X-82.741Y92.244
X-81.531Y92.869
X-80.289Y93.425
X-79.017Y93.91
X-77.719Y94.324
X-76.401Y94.664
X-75.066Y94.93
X-73.718Y95.12
X-72.361Y95.234
X-71Y95.272
X-41
X-40.335Y95.311
X-39.679Y95.427
X-39.041Y95.618
X-38.43Y95.882
X-37.853Y96.215
X-37.318Y96.612
X-36.834Y97.07
X-36.406Y97.58
X-36.04Y98.136
X-35.741Y98.731
X-35.513Y99.357
X-35.36Y100.005
X-35.282Y100.667
Y101.333
X-35.36Y101.995
X-35.513Y102.643
X-35.741Y103.269
X-36.04Y103.864
X-36.406Y104.42
X-36.834Y104.93
X-37.318Y105.388
X-37.853Y105.785
X-38.43Y106.118
X-39.041Y106.382
X-39.679Y106.573
X-40.335Y106.689
X-41Y106.728
X-71
X-72.361Y106.766
X-73.718Y106.88
X-75.066Y107.07
X-76.401Y107.336
X-77.719Y107.676
X-79.017Y108.09
X-80.289Y108.575
X-81.531Y109.131
X-82.741Y109.756
X-83.914Y110.448
X-85.046Y111.204
X-86.134Y112.023
X-87.174Y112.901
X-88.163Y113.837
X-89.099Y114.826
X-89.977Y115.866
X-90.796Y116.954
X-91.552Y118.086
X-92.244Y119.259
X-92.869Y120.469
X-93.425Y121.711
X-93.91Y122.983
X-94.324Y124.281
X-94.664Y125.599
X-94.93Y126.934
X-95.12Y128.282
X-95.234Y129.639
X-95.272Y131
Y161
X-95.311Y161.665
X-95.427Y162.321
X-95.618Y162.959
X-95.882Y163.57
X-96.215Y164.147
X-96.612Y164.682
X-97.07Y165.166
X-97.58Y165.594
X-98.136Y165.96
X-98.731Y166.259
X-99.357Y166.487
X-100.005Y166.64
X-100.667Y166.718
X-101.333
X-101.995Y166.64
X-102.643Y166.487
X-103.269Y166.259
X-103.864Y165.96
X-104.42Y165.594
X-104.93Y165.166
X-105.388Y164.682
X-105.785Y164.147
X-106.118Y163.57
X-106.382Y162.959
X-106.573Y162.321
X-106.689Y161.665
X-106.728Y161
Y131
X-106.765Y129.655
X-106.877Y128.315
X-107.062Y126.982
X-107.322Y125.662
X-107.654Y124.359
X-108.058Y123.075
X-108.532Y121.816
X-109.075Y120.586
X-109.686Y119.387
X-110.362Y118.224
X-111.102Y117.1
X-111.902Y116.019
X-112.762Y114.984
X-113.677Y113.998
X-114.645Y113.065
X-115.664Y112.186
X-116.73Y111.365
X-117.84Y110.605
X-118.99Y109.907
X-120.177Y109.274
X-121.397Y108.708
X-122.647Y108.21
X-123.923Y107.782
X-125.22Y107.426
X-126.535Y107.142
X-127.863Y106.931
X-129.202Y106.794
X-130.546Y106.732
X-130.834Y106.755
X-131.113Y106.835
X-131.37Y106.968
X-131.596Y107.149
X-131.782Y107.371
X-131.92Y107.626
X-132.058Y107.88
X-132.243Y108.103
X-132.467Y108.285
X-132.722Y108.421
X-132.999Y108.504
X-133.287Y108.533
X-161
X-161.762Y108.494
X-162.516Y108.378
X-163.255Y108.187
X-163.97Y107.922
X-164.656Y107.586
X-165.303Y107.182
X-165.906Y106.715
X-166.46Y106.19
X-166.957Y105.611
X-167.392Y104.984
X-167.763Y104.317
X-168.064Y103.616
X-168.292Y102.888
X-168.446Y102.141
X-168.523Y101.382
Y100.618
X-168.446Y99.859
X-168.292Y99.112
X-168.064Y98.384
X-167.763Y97.683
X-167.392Y97.016
X-166.957Y96.389
X-166.46Y95.81
X-165.906Y95.285
X-165.303Y94.818
X-164.656Y94.414
X-163.97Y94.078
X-163.255Y93.813
X-162.516Y93.622
X-161.762Y93.506
X-161Y93.467
X-131
X-129.694Y93.429
X-128.392Y93.316
X-127.099Y93.126
X-125.819Y92.862
X-124.556Y92.524
X-123.316Y92.113
X-122.101Y91.63
X-120.917Y91.078
X-119.766Y90.457
X-118.654Y89.771
X-117.583Y89.022
X-116.558Y88.211
X-115.582Y87.342
X-114.658Y86.418
X-113.789Y85.442
X-112.978Y84.417
X-112.229Y83.346
X-111.543Y82.234
X-110.922Y81.083
X-110.37Y79.899
X-109.887Y78.684
X-109.476Y77.444
X-109.138Y76.181
X-108.874Y74.901
X-108.684Y73.608
X-108.571Y72.306
X-108.533Y71
Y41
X-108.494Y40.238
X-108.378Y39.484
X-108.187Y38.745
X-107.922Y38.03
X-107.586Y37.344
X-107.182Y36.697
X-106.715Y36.094
X-106.19Y35.54
X-105.611Y35.043
X-104.984Y34.608
X-104.317Y34.237
X-103.616Y33.936
X-102.888Y33.708
X-102.141Y33.554
X-101.382Y33.477
X-100.618
X-99.859Y33.554
X-99.112Y33.708
X-98.384Y33.936
X-97.683Y34.237
X-97.016Y34.608
X-96.389Y35.043
X-95.81Y35.54
X-95.285Y36.094
X-94.818Y36.697
X-94.414Y37.344
X-94.078Y38.03
X-93.813Y38.745
X-93.622Y39.484
X-93.506Y40.238
X-93.467Y41
Y71
X-93.429Y72.306
X-93.316Y73.608
X-93.126Y74.901
X-92.862Y76.181
X-92.524Y77.444
X-92.113Y78.684
X-91.63Y79.899
X-91.078Y81.083
X-90.457Y82.234
X-89.771Y83.346
X-89.022Y84.417
X-88.211Y85.442
X-87.342Y86.418
X-86.418Y87.342
X-85.442Y88.211
X-84.417Y89.022
X-83.346Y89.771
X-82.234Y90.457
X-81.083Y91.078
X-79.899Y91.63
X-78.684Y92.113
X-77.444Y92.524
X-76.181Y92.862
X-74.901Y93.126
X-73.608Y93.316
X-72.306Y93.429
X-71Y93.467
X-41
X-40.238Y93.506
X-39.484Y93.622
X-38.745Y93.813
X-38.03Y94.078
X-37.344Y94.414
X-36.697Y94.818
X-36.094Y95.285
X-35.54Y95.81
X-35.043Y96.389
X-34.608Y97.016
X-34.237Y97.683
X-33.936Y98.384
X-33.708Y99.112
X-33.554Y99.859
X-33.477Y100.618
Y101.382
X-33.554Y102.141
X-33.708Y102.888
X-33.936Y103.616
X-34.237Y104.317
X-34.608Y104.984
X-35.043Y105.611
X-35.54Y106.19
X-36.094Y106.715
X-36.697Y107.182
X-37.344Y107.586
X-38.03Y107.922
X-38.745Y108.187
X-39.484Y108.378
X-40.238Y108.494
X-41Y108.533
X-71
X-72.306Y108.571
X-73.608Y108.684
X-74.901Y108.874
X-76.181Y109.138
X-77.444Y109.476
X-78.684Y109.887
X-79.899Y110.37
X-81.083Y110.922
X-82.234Y111.543
X-83.346Y112.229
X-84.417Y112.978
X-85.442Y113.789
X-86.418Y114.658
X-87.342Y115.582
X-88.211Y116.558
X-89.022Y117.583
X-89.771Y118.654
X-90.457Y119.766
X-91.078Y120.917
X-91.63Y122.101
X-92.113Y123.316
X-92.524Y124.556
X-92.862Y125.819
X-93.126Y127.099
X-93.316Y128.392
X-93.429Y129.694
X-93.467Y131
Y161
X-93.506Y161.762
X-93.622Y162.516
X-93.813Y163.255
X-94.078Y163.97
X-94.414Y164.656
X-94.818Y165.303
X-95.285Y165.906
X-95.81Y166.46
X-96.389Y166.957
X-97.016Y167.392
X-97.683Y167.763
X-98.384Y168.064
X-99.112Y168.292
X-99.859Y168.446
X-100.618Y168.523
X-101.382
X-102.141Y168.446
X-102.888Y168.292
X-103.616Y168.064
X-104.317Y167.763
X-104.984Y167.392
X-105.611Y166.957
X-106.19Y166.46
X-106.715Y165.906
X-107.182Y165.303
X-107.586Y164.656
X-107.922Y163.97
X-108.187Y163.255
X-108.378Y162.516
X-108.494Y161.762
X-108.533Y161
Y131
X-108.571Y129.694
X-108.684Y128.392
X-108.874Y127.099
X-109.138Y125.819
X-109.476Y124.556
X-109.887Y123.316
X-110.37Y122.101
X-110.922Y120.917
X-111.543Y119.766
X-112.229Y118.654
X-112.978Y117.583
X-113.789Y116.558
X-114.658Y115.582
X-115.582Y114.658
X-116.558Y113.789
X-117.583Y112.978
X-118.654Y112.229
X-119.766Y111.543
X-120.917Y110.922
X-122.101Y110.37
X-123.316Y109.887
X-124.556Y109.476
X-125.819Y109.138
X-127.099Y108.874
X-128.392Y108.684
X-129.694Y108.571
X-131Y108.533
X-133.287
X-133.572Y108.561
X-133.847Y108.644
X-134.1Y108.779
X-134.322Y108.961
X-134.505Y109.182
X-134.641Y109.435
X-134.776Y109.688
X-134.959Y109.909
X-135.181Y110.091
X-135.434Y110.226
X-135.709Y110.309
X-135.994Y110.338
X-161
X-161.862Y110.298
X-162.716Y110.179
X-163.555Y109.981
X-164.373Y109.707
X-165.162Y109.359
X-165.916Y108.939
X-166.627Y108.451
X-167.291Y107.9
X-167.9Y107.291
X-168.451Y106.627
X-168.939Y105.916
X-169.359Y105.162
X-169.707Y104.373
X-169.981Y103.555
X-170.179Y102.716
X-170.298Y101.862
X-170.338Y101
X-170.298Y100.138
X-170.179Y99.284
X-169.981Y98.445
X-169.707Y97.627
X-169.359Y96.838
X-168.939Y96.084
X-168.451Y95.373
X-167.9Y94.709
X-167.291Y94.1
X-166.627Y93.549
X-165.916Y93.061
X-165.162Y92.641
X-164.373Y92.293
X-163.555Y92.019
X-162.716Y91.821
X-161.862Y91.702
X-161Y91.662
X-131
X-129.752Y91.625
X-128.509Y91.512
X-127.275Y91.324
X-126.055Y91.062
X-124.853Y90.727
X-123.673Y90.32
X-122.52Y89.842
X-121.398Y89.296
X-120.311Y88.683
X-119.262Y88.005
X-118.257Y87.265
X-117.298Y86.466
X-116.389Y85.611
X-115.534Y84.702
X-114.735Y83.743
X-113.995Y82.738
X-113.317Y81.689
X-112.704Y80.602
X-112.158Y79.48
X-111.68Y78.327
X-111.273Y77.147
X-110.938Y75.945
X-110.676Y74.725
X-110.488Y73.491
X-110.375Y72.248
X-110.338Y71
Y41
X-110.298Y40.138
X-110.179Y39.284
X-109.981Y38.445
X-109.707Y37.627
X-109.359Y36.838
X-108.939Y36.084
X-108.451Y35.373
X-107.9Y34.709
X-107.291Y34.1
X-106.627Y33.549
X-105.916Y33.061
X-105.162Y32.641
X-104.373Y32.293
X-103.555Y32.019
X-102.716Y31.821
X-101.862Y31.702
X-101Y31.662
X-100.138Y31.702
X-99.284Y31.821
X-98.445Y32.019
X-97.627Y32.293
X-96.838Y32.641
X-96.084Y33.061
X-95.373Y33.549
X-94.709Y34.1
X-94.1Y34.709
X-93.549Y35.373
X-93.061Y36.084
X-92.641Y36.838
X-92.293Y37.627
X-92.019Y38.445
X-91.821Y39.284
X-91.702Y40.138
X-91.662Y41
Y71
X-91.625Y72.248
X-91.512Y73.491
X-91.324Y74.725
X-91.062Y75.945
X-90.727Y77.147
X-90.32Y78.327
X-89.842Y79.48
X-89.296Y80.602
X-88.683Y81.689
X-88.005Y82.738
X-87.265Y83.743
X-86.466Y84.702
X-85.611Y85.611
X-84.702Y86.466
X-83.743Y87.265
X-82.738Y88.005
X-81.689Y88.683
X-80.602Y89.296
X-79.48Y89.842
X-78.327Y90.32
X-77.147Y90.727
X-75.945Y91.062
X-74.725Y91.324
X-73.491Y91.512
X-72.248Y91.625
X-71Y91.662
X-41
X-40.138Y91.702
X-39.284Y91.821
X-38.445Y92.019
X-37.627Y92.293
X-36.838Y92.641
X-36.084Y93.061
X-35.373Y93.549
X-34.709Y94.1
X-34.1Y94.709
X-33.549Y95.373
X-33.061Y96.084
X-32.641Y96.838
X-32.293Y97.627
X-32.019Y98.445
X-31.821Y99.284
X-31.702Y100.138
X-31.662Y101
X-31.702Y101.862
X-31.821Y102.716
X-32.019Y103.555
X-32.293Y104.373
X-32.641Y105.162
X-33.061Y105.916
X-33.549Y106.627
X-34.1Y107.291
X-34.709Y107.9
X-35.373Y108.451
X-36.084Y108.939
X-36.838Y109.359
X-37.627Y109.707
X-38.445Y109.981
X-39.284Y110.179
X-40.138Y110.298
X-41Y110.338
X-71
X-72.248Y110.375
X-73.491Y110.488
X-74.725Y110.676
X-75.945Y110.938
X-77.147Y111.273
X-78.327Y111.68
X-79.48Y112.158
X-80.602Y112.704
X-81.689Y113.317
X-82.738Y113.995
X-83.743Y114.735
X-84.702Y115.534
X-85.611Y116.389
X-86.466Y117.298
X-87.265Y118.257
X-88.005Y119.262
X-88.683Y120.311
X-89.296Y121.398
X-89.842Y122.52
X-90.32Y123.673
X-90.727Y124.853
X-91.062Y126.055
X-91.324Y127.275
X-91.512Y128.509
X-91.625Y129.752
X-91.662Y131
Y161
X-91.702Y161.862
X-91.821Y162.716
X-92.019Y163.555
X-92.293Y164.373
X-92.641Y165.162
X-93.061Y165.916
X-93.549Y166.627
X-94.1Y167.291
X-94.709Y167.9
X-95.373Y168.451
X-96.084Y168.939
X-96.838Y169.359
X-97.627Y169.707
X-98.445Y169.981
X-99.284Y170.179
X-100.138Y170.298
X-101Y170.338
X-101.862Y170.298
X-102.716Y170.179
X-103.555Y169.981
X-104.373Y169.707
X-105.162Y169.359
X-105.916Y168.939
X-106.627Y168.451
X-107.291Y167.9
X-107.9Y167.291
X-108.451Y166.627
X-108.939Y165.916
X-109.359Y165.162
X-109.707Y164.373
X-109.981Y163.555
X-110.179Y162.716
X-110.298Y161.862
X-110.338Y161
Y131
X-110.375Y129.752
X-110.488Y128.509
X-110.676Y127.275
X-110.938Y126.055
X-111.273Y124.853
X-111.68Y123.673
X-112.158Y122.52
X-112.704Y121.398
X-113.317Y120.311
X-113.995Y119.262
X-114.735Y118.257
X-115.534Y117.298
X-116.389Y116.389
X-117.298Y115.534
X-118.257Y114.735
X-119.262Y113.995
X-120.311Y113.317
X-121.398Y112.704
X-122.52Y112.158
X-123.673Y111.68
X-124.853Y111.273
X-126.055Y110.938
X-127.275Y110.676
X-128.509Y110.488
X-129.752Y110.375
X-131Y110.338
X-135.994
X-136.28Y110.366
X-136.555Y110.449
X-136.808Y110.584
X-137.03Y110.766
X-137.212Y110.987
X-137.348Y111.24
X-137.484Y111.493
X-137.666Y111.714
X-137.888Y111.896
X-138.142Y112.031
X-138.416Y112.114
X-138.702Y112.143
X-161
X-161.92Y112.104
X-162.834Y111.991
X-163.735Y111.802
X-164.618Y111.539
X-165.476Y111.204
X-166.303Y110.8
X-167.094Y110.328
X-167.844Y109.793
X-168.547Y109.198
X-169.198Y108.547
X-169.793Y107.844
X-170.328Y107.094
X-170.8Y106.303
X-171.204Y105.476
X-171.539Y104.618
X-171.802Y103.735
X-171.991Y102.834
X-172.104Y101.92
X-172.143Y101
X-172.104Y100.08
X-171.991Y99.166
X-171.802Y98.265
X-171.539Y97.382
X-171.204Y96.524
X-170.8Y95.697
X-170.328Y94.906
X-169.793Y94.156
X-169.198Y93.453
X-168.547Y92.802
X-167.844Y92.207
X-167.094Y91.672
X-166.303Y91.2
X-165.476Y90.796
X-164.618Y90.461
X-163.735Y90.198
X-162.834Y90.009
X-161.92Y89.896
X-161Y89.857
X-131
X-129.816Y89.82
X-128.637Y89.709
X-127.466Y89.523
X-126.31Y89.265
X-125.173Y88.935
X-124.058Y88.533
X-122.971Y88.063
X-121.915Y87.525
X-120.896Y86.922
X-119.916Y86.256
X-118.98Y85.53
X-118.091Y84.747
X-117.253Y83.909
X-116.47Y83.02
X-115.744Y82.084
X-115.078Y81.104
X-114.475Y80.085
X-113.937Y79.029
X-113.467Y77.942
X-113.065Y76.827
X-112.735Y75.69
X-112.477Y74.534
X-112.291Y73.363
X-112.18Y72.184
X-112.143Y71
Y41
X-112.104Y40.08
X-111.991Y39.166
X-111.802Y38.265
X-111.539Y37.382
X-111.204Y36.524
X-110.8Y35.697
X-110.328Y34.906
X-109.793Y34.156
X-109.198Y33.453
X-108.547Y32.802
X-107.844Y32.207
X-107.094Y31.672
X-106.303Y31.2
X-105.476Y30.796
X-104.618Y30.461
X-103.735Y30.198
X-102.834Y30.009
X-101.92Y29.896
X-101Y29.857
X-100.08Y29.896
X-99.166Y30.009
X-98.265Y30.198
X-97.382Y30.461
X-96.524Y30.796
X-95.697Y31.2
X-94.906Y31.672
X-94.156Y32.207
X-93.453Y32.802
X-92.802Y33.453
X-92.207Y34.156
X-91.672Y34.906
X-91.2Y35.697
X-90.796Y36.524
X-90.461Y37.382
X-90.198Y38.265
X-90.009Y39.166
X-89.896Y40.08
X-89.857Y41
Y71
X-89.82Y72.184
X-89.709Y73.363
X-89.523Y74.534
X-89.265Y75.69
X-88.935Y76.827
X-88.533Y77.942
X-88.063Y79.029
X-87.525Y80.085
X-86.922Y81.104
X-86.256Y82.084
X-85.53Y83.02
X-84.747Y83.909
X-83.909Y84.747
X-83.02Y85.53
X-82.084Y86.256
X-81.104Y86.922
X-80.085Y87.525
X-79.029Y88.063
X-77.942Y88.533
X-76.827Y88.935
X-75.69Y89.265
X-74.534Y89.523
X-73.363Y89.709
X-72.184Y89.82
X-71Y89.857
X-41
X-40.08Y89.896
X-39.166Y90.009
X-38.265Y90.198
X-37.382Y90.461
X-36.524Y90.796
X-35.697Y91.2
X-34.906Y91.672
X-34.156Y92.207
X-33.453Y92.802
X-32.802Y93.453
X-32.207Y94.156
X-31.672Y94.906
X-31.2Y95.697
X-30.796Y96.524
X-30.461Y97.382
X-30.198Y98.265
X-30.009Y99.166
X-29.896Y100.08
X-29.857Y101
X-29.896Y101.92
X-30.009Y102.834
X-30.198Y103.735
X-30.461Y104.618
X-30.796Y105.476
X-31.2Y106.303
X-31.672Y107.094
X-32.207Y107.844
X-32.802Y108.547
X-33.453Y109.198
X-34.156Y109.793
X-34.906Y110.328
X-35.697Y110.8
X-36.524Y111.204
X-37.382Y111.539
X-38.265Y111.802
X-39.166Y111.991
X-40.08Y112.104
X-41Y112.143
X-71
X-72.184Y112.18
X-73.363Y112.291
X-74.534Y112.477
X-75.69Y112.735
X-76.827Y113.065
X-77.942Y113.467
X-79.029Y113.937
X-80.085Y114.475
X-81.104Y115.078
X-82.084Y115.744
X-83.02Y116.47
X-83.909Y117.253
X-84.747Y118.091
X-85.53Y118.98
X-86.256Y119.916
X-86.922Y120.896
X-87.525Y121.915
X-88.063Y122.971
X-88.533Y124.058
X-88.935Y125.173
X-89.265Y126.31
X-89.523Y127.466
X-89.709Y128.637
X-89.82Y129.816
X-89.857Y131
Y161
X-89.896Y161.92
X-90.009Y162.834
X-90.198Y163.735
X-90.461Y164.618
X-90.796Y165.476
X-91.2Y166.303
X-91.672Y167.094
X-92.207Y167.844
X-92.802Y168.547
X-93.453Y169.198
X-94.156Y169.793
X-94.906Y170.328
X-95.697Y170.8
X-96.524Y171.204
X-97.382Y171.539
X-98.265Y171.802
X-99.166Y171.991
X-100.08Y172.104
X-101Y172.143
X-101.92Y172.104
X-102.834Y171.991
X-103.735Y171.802
X-104.618Y171.539
X-105.476Y171.204
X-106.303Y170.8
X-107.094Y170.328
X-107.844Y169.793
X-108.547Y169.198
X-109.198Y168.547
X-109.793Y167.844
X-110.328Y167.094
X-110.8Y166.303
X-111.204Y165.476
X-111.539Y164.618
X-111.802Y163.735
X-111.991Y162.834
X-112.104Y161.92
X-112.143Y161
Y131
X-112.18Y129.816
X-112.291Y128.637
X-112.477Y127.466
X-112.735Y126.31
X-113.065Y125.173
X-113.467Y124.058
X-113.937Y122.971
X-114.475Y121.915
X-115.078Y120.896
X-115.744Y119.916
X-116.47Y118.98
X-117.253Y118.091
X-118.091Y117.253
X-118.98Y116.47
X-119.916Y115.744
X-120.896Y115.078
X-121.915Y114.475
X-122.971Y113.937
X-124.058Y113.467
X-125.173Y113.065
X-126.31Y112.735
X-127.466Y112.477
X-128.637Y112.291
X-129.816Y112.18
X-131Y112.143
X-138.702
X-138.987Y112.171
X-139.262Y112.254
X-139.515Y112.389
X-139.737Y112.571
X-139.92Y112.792
X-140.056Y113.045
X-140.191Y113.298
X-140.374Y113.519
X-140.596Y113.701
X-140.849Y113.836
X-141.124Y113.919
X-141.409Y113.948
X-161
X-162.016Y113.908
X-163.025Y113.788
X-164.023Y113.59
X-165.001Y113.314
X-165.955Y112.962
X-166.878Y112.536
X-167.765Y112.04
X-168.61Y111.475
X-169.409Y110.845
X-170.155Y110.155
X-170.845Y109.409
X-171.475Y108.61
X-172.04Y107.765
X-172.536Y106.878
X-172.962Y105.955
X-173.314Y105.001
X-173.59Y104.023
X-173.788Y103.025
X-173.908Y102.016
X-173.948Y101
X-173.908Y99.984
X-173.788Y98.975
X-173.59Y97.977
X-173.314Y96.999
X-172.962Y96.045
X-172.536Y95.122
X-172.04Y94.235
X-171.475Y93.39
X-170.845Y92.591
X-170.155Y91.845
X-169.409Y91.155
X-168.61Y90.525
X-167.765Y89.96
X-166.878Y89.464
X-165.955Y89.038
X-165.001Y88.686
X-164.023Y88.41
X-163.025Y88.212
X-162.016Y88.092
